!!!system-decoration: \{(s1,s2)\}s3,s4\
!!!OTL: csvs/A_WEAVER_OF_DREAMS
**kern	**kern	**kern	**kern	**mxhm
*part3	*part2	*part1	*part1	*part1
*staff4	*staff3	*staff2	*staff1	*
*I'Contrabass'	*I'Drumset'	*'IPiano'	*	*
*I'Cb.	*I'D. Set	*I'Pno.	*	*
*clefF4	*clefX	*clefF4	*clefG2	*
*k[b-e-a-]	*k[]	*k[b-e-a-]	*k[b-e-a-]	*
*C: 	*C:	*C:	*C:	*C:
*M4/4	*M4/4	*M4/4	*M4/4	*
*MM140	*MM140	*MM140	*MM140	*
*SSSwing	*SSSwing	*SSSwing	*SSSwing	*
=1	=1	=1	=1	=1
*	*^	*^	*	*
*	*head:regular	*head:x	*	*	*	*
!	!	!	!	!	!LO:TX:a:t=[quarter]=140.0	!
!	!	!	!	!	!LO:TX:a:t=Swing	!
6C	4re	16Ree/	4G	1ryy	4c e cc gg ccc	C 
.	.	16ree	.	.	.	.
.	.	.	.	.	.	.
.	.	8ree	.	.	.	.
12r	.	.	.	.	.	.
.	.	.	.	.	.	.
8.GG	4re	16Ree/	4r	.	4r	.
.	.	16ree	.	.	.	.
.	.	.	.	.	.	.
.	.	8ree	.	.	.	.
.	.	.	.	.	.	.
16r	.	.	.	.	.	.
4CC	4re	16Ree/	4G	.	4c e cc gg ccc	.
.	.	16ree	.	.	.	.
.	.	.	.	.	.	.
.	.	8ree	.	.	.	.
.	.	.	.	.	.	.
.	.	.	.	.	.	.
4GGG	4re	16Ree/	4r	.	4r	.
.	.	16ree	.	.	.	.
.	.	.	.	.	.	.
.	.	8ree	.	.	.	.
.	.	.	.	.	.	.
.	.	.	.	.	.	.
=2	=2	=2	=2	=2	=2	=2
*	*head:regular	*head:x	*	*	*	*
8CC	4re	16Ree/	4C E G	1ryy	4c	C 
.	.	16ree	.	.	.	.
.	.	.	.	.	.	.
8r	.	8ree	.	.	.	.
.	.	.	.	.	.	.
.	.	.	.	.	.	.
4BBB	4re	16Ree/	4r	.	4r	.
.	.	16ree	.	.	.	.
.	.	.	.	.	.	.
.	.	8ree	.	.	.	.
.	.	.	.	.	.	.
.	.	.	.	.	.	.
4CC	4re	16Ree/	4r	.	4r	.
.	.	16ree	.	.	.	.
.	.	.	.	.	.	.
.	.	8ree	.	.	.	.
.	.	.	.	.	.	.
.	.	.	.	.	.	.
6GGG	4re	16Ree/	4r	.	4r	.
.	.	16ree	.	.	.	.
.	.	.	.	.	.	.
.	.	8ree	.	.	.	.
12r	.	.	.	.	.	.
.	.	.	.	.	.	.
=3	=3	=3	=3	=3	=3	=3
*	*head:regular	*head:x	*	*	*	*
4BBB	4re	16Ree/	4D B	1ryy	4f b ff	B >
.	.	16ree	.	.	.	.
.	.	.	.	.	.	.
.	.	8ree	.	.	.	.
.	.	.	.	.	.	.
.	.	.	.	.	.	.
4FF	4re	16Ree/	4r	.	4r	.
.	.	16ree	.	.	.	.
.	.	.	.	.	.	.
.	.	8ree	.	.	.	.
.	.	.	.	.	.	.
.	.	.	.	.	.	.
4BBB	4re	16Ree/	4D B	.	4f b ff	.
.	.	16ree	.	.	.	.
.	.	.	.	.	.	.
.	.	8ree	.	.	.	.
.	.	.	.	.	.	.
.	.	.	.	.	.	.
4FFF	4re	16Ree/	4D B	.	4f b ff	.
.	.	16ree	.	.	.	.
.	.	.	.	.	.	.
.	.	8ree	.	.	.	.
.	.	.	.	.	.	.
.	.	.	.	.	.	.
=4	=4	=4	=4	=4	=4	=4
*	*head:regular	*head:x	*	*	*	*
4EEE	16Rf\	16Ree/	6BB E G#	1ryy	6e b ee	E 
.	16re	16ree	.	.	.	.
.	.	.	.	.	.	.
.	8re	8ree	.	.	.	.
.	.	.	12r	.	12r	.
.	.	.	.	.	.	.
4BBB	16Rf\	16Ree/	4r	.	4r	.
.	16re	16ree	.	.	.	.
.	.	.	.	.	.	.
.	8re	8ree	.	.	.	.
.	.	.	.	.	.	.
.	.	.	.	.	.	.
4EE	4re	16Ree/	4r	.	4r	.
.	.	16ree	.	.	.	.
.	.	.	.	.	.	.
.	.	8ree	.	.	.	.
.	.	.	.	.	.	.
.	.	.	.	.	.	.
4AAA#	4re	16Ree/	4r	.	4r	.
.	.	16ree	.	.	.	.
.	.	.	.	.	.	.
.	.	8ree	.	.	.	.
.	.	.	.	.	.	.
.	.	.	.	.	.	.
=5	=5	=5	=5	=5	=5	=5
*	*head:regular	*head:x	*	*	*	*
4AAA	4re	12Ree/	4r	1ryy	4r	A a
.	.	.	.	.	.	.
.	.	12ree	.	.	.	.
.	.	.	.	.	.	.
.	.	12ree	.	.	.	.
.	.	.	.	.	.	.
4AAA	4re	12Ree/	4r	.	4r	.
.	.	.	.	.	.	.
.	.	12ree	.	.	.	.
.	.	.	.	.	.	.
.	.	12ree	.	.	.	.
.	.	.	.	.	.	.
4AAA	4re	12Ree/	4r	.	4r	.
.	.	.	.	.	.	.
.	.	12ree	.	.	.	.
.	.	.	.	.	.	.
.	.	12ree	.	.	.	.
.	.	.	.	.	.	.
6EE	4re	12Ree/	4r	.	4r	.
.	.	.	.	.	.	.
.	.	12ree	.	.	.	.
.	.	.	.	.	.	.
12r	.	12ree	.	.	.	.
.	.	.	.	.	.	.
=6	=6	=6	=6	=6	=6	=6
*	*head:regular	*head:x	*	*	*	*
4AAA	4re	12Ree/	4r	1ryy	4r	A a
.	.	.	.	.	.	.
.	.	12ree	.	.	.	.
.	.	.	.	.	.	.
.	.	12ree	.	.	.	.
.	.	.	.	.	.	.
4BBB	4re	12Ree/	4r	.	4r	.
.	.	.	.	.	.	.
.	.	12ree	.	.	.	.
.	.	.	.	.	.	.
.	.	12ree	.	.	.	.
.	.	.	.	.	.	.
4CC	4re	12Ree/	4r	.	4r	.
.	.	.	.	.	.	.
.	.	12ree	.	.	.	.
.	.	.	.	.	.	.
.	.	12ree	.	.	.	.
.	.	.	.	.	.	.
8.AAA	4re	16Ree/	4A	.	4c e a	.
.	.	16ree	.	.	.	.
.	.	.	.	.	.	.
.	.	8ree	.	.	.	.
.	.	.	.	.	.	.
16r	.	.	.	.	.	.
=7	=7	=7	=7	=7	=7	=7
*	*head:regular	*head:x	*	*	*	*
8.GG	4re	12Ree/	4r	1ryy	4r	G a
.	.	.	.	.	.	.
.	.	12ree	.	.	.	.
.	.	.	.	.	.	.
.	.	12ree	.	.	.	.
16r	.	.	.	.	.	.
4AA#	4re	12Ree/	4r	.	4r	.
.	.	.	.	.	.	.
.	.	12ree	.	.	.	.
.	.	.	.	.	.	.
.	.	12ree	.	.	.	.
.	.	.	.	.	.	.
8GGG	4re	12Ree/	12G A#	.	12d g	.
.	.	.	.	.	.	.
.	.	12ree	12r	.	12r	.
8r	.	.	.	.	.	.
.	.	12ree	12r	.	12r	.
.	.	.	.	.	.	.
4BBB	4re	12Ree/	4r	.	4r	.
.	.	.	.	.	.	.
.	.	12ree	.	.	.	.
.	.	.	.	.	.	.
.	.	12ree	.	.	.	.
.	.	.	.	.	.	.
=8	=8	=8	=8	=8	=8	=8
*	*head:regular	*head:x	*	*	*	*
4CC	12Rf\	12Ree/	4r	1ryy	4r	C 
.	.	.	.	.	.	.
.	12re	12ree	.	.	.	.
.	.	.	.	.	.	.
.	12re	12ree	.	.	.	.
.	.	.	.	.	.	.
4GG	4re	12Ree/	12G	.	12c e g	.
.	.	.	.	.	.	.
.	.	12ree	12r	.	12r	.
.	.	.	.	.	.	.
.	.	12ree	12r	.	12r	.
.	.	.	.	.	.	.
8GGG	4re	16Ree/	4G	.	4c e g	.
.	.	16ree	.	.	.	.
.	.	.	.	.	.	.
8r	.	8ree	.	.	.	.
.	.	.	.	.	.	.
.	.	.	.	.	.	.
8FFF	4re	16Ree/	4r	.	4r	.
.	.	16ree	.	.	.	.
.	.	.	.	.	.	.
8r	.	8ree	.	.	.	.
.	.	.	.	.	.	.
.	.	.	.	.	.	.
=9	=9	=9	=9	=9	=9	=9
*	*head:regular	*head:x	*	*	*	*
4r	4re	4ree	4r	1ryy	4r	F 
.	.	.	.	.	.	.
.	.	.	.	.	.	.
.	.	.	.	.	.	.
.	.	.	.	.	.	.
.	.	.	.	.	.	.
4CC	4re	16Ree/	4r	.	4r	.
.	.	16ree	.	.	.	.
.	.	.	.	.	.	.
.	.	8ree	.	.	.	.
.	.	.	.	.	.	.
.	.	.	.	.	.	.
4AA	16Rf\	4ree	6A	.	6f cc ff ccc	.
.	16re	.	.	.	.	.
.	.	.	.	.	.	.
.	8re	.	.	.	.	.
.	.	.	12r	.	12r	.
.	.	.	.	.	.	.
6C	4re	16Ree/	4r	.	4r	.
.	.	16ree	.	.	.	.
.	.	.	.	.	.	.
.	.	8ree	.	.	.	.
12r	.	.	.	.	.	.
.	.	.	.	.	.	.
=10	=10	=10	=10	=10	=10	=10
*	*head:regular	*head:x	*	*	*	*
4AA#	16Rf\	4ree	4r	1ryy	4r	B 
.	16re	.	.	.	.	.
.	.	.	.	.	.	.
.	8re	.	.	.	.	.
.	.	.	.	.	.	.
.	.	.	.	.	.	.
4FF	4re	16Ree/	4D A#	.	4f a# ff	.
.	.	16ree	.	.	.	.
.	.	.	.	.	.	.
.	.	8ree	.	.	.	.
.	.	.	.	.	.	.
.	.	.	.	.	.	.
4AAA#	4re	4ree	4r	.	4r	.
.	.	.	.	.	.	.
.	.	.	.	.	.	.
.	.	.	.	.	.	.
.	.	.	.	.	.	.
.	.	.	.	.	.	.
8.FFF	16Rf\	16Ree/	4r	.	4r	.
.	16re	16ree	.	.	.	.
.	.	.	.	.	.	.
.	8re	8ree	.	.	.	.
.	.	.	.	.	.	.
16r	.	.	.	.	.	.
=11	=11	=11	=11	=11	=11	=11
*	*head:regular	*head:x	*	*	*	*
8.EEE	4re	4ree	4E G B	1ryy	4e	E a
.	.	.	.	.	.	.
.	.	.	.	.	.	.
.	.	.	.	.	.	.
.	.	.	.	.	.	.
16r	.	.	.	.	.	.
4DD#	16Rf\	16Ree/	4r	.	4r	.
.	16re	16ree	.	.	.	.
.	.	.	.	.	.	.
.	8re	8ree	.	.	.	.
.	.	.	.	.	.	.
.	.	.	.	.	.	.
8EEE	4re	4ree	4r	.	4r	.
.	.	.	.	.	.	.
.	.	.	.	.	.	.
8r	.	.	.	.	.	.
.	.	.	.	.	.	.
.	.	.	.	.	.	.
4BBB	4re	16Ree/	4r	.	4r	.
.	.	16ree	.	.	.	.
.	.	.	.	.	.	.
.	.	8ree	.	.	.	.
.	.	.	.	.	.	.
.	.	.	.	.	.	.
=12	=12	=12	=12	=12	=12	=12
*	*head:regular	*head:x	*	*	*	*
4CC#	4re	4ree	4r	1ryy	4r	A 
.	.	.	.	.	.	.
.	.	.	.	.	.	.
.	.	.	.	.	.	.
.	.	.	.	.	.	.
.	.	.	.	.	.	.
4AAA	4re	16Ree/	4r	.	4r	.
.	.	16ree	.	.	.	.
.	.	.	.	.	.	.
.	.	8ree	.	.	.	.
.	.	.	.	.	.	.
.	.	.	.	.	.	.
4AAA	4re	4ree	4r	.	4r	.
.	.	.	.	.	.	.
.	.	.	.	.	.	.
.	.	.	.	.	.	.
.	.	.	.	.	.	.
.	.	.	.	.	.	.
4EE	4re	16Ree/	12A	.	12c# e a	.
.	.	16ree	.	.	.	.
.	.	.	12r	.	12r	.
.	.	8ree	.	.	.	.
.	.	.	12r	.	12r	.
.	.	.	.	.	.	.
=13	=13	=13	=13	=13	=13	=13
*	*head:regular	*head:x	*	*	*	*
4DD	4re	4ree	4F# A	1ryy	4d a	D 
.	.	.	.	.	.	.
.	.	.	.	.	.	.
.	.	.	.	.	.	.
.	.	.	.	.	.	.
.	.	.	.	.	.	.
8.AA	4re	16Ree/	4r	.	4r	.
.	.	16ree	.	.	.	.
.	.	.	.	.	.	.
.	.	8ree	.	.	.	.
.	.	.	.	.	.	.
16r	.	.	.	.	.	.
6DD	4re	4ree	4r	.	4d f# a dd	.
.	.	.	.	.	.	.
.	.	.	.	.	.	.
.	.	.	.	.	.	.
12r	.	.	.	.	.	.
.	.	.	.	.	.	.
4DD	4re	16Ree/	4r	.	4r	.
.	.	16ree	.	.	.	.
.	.	.	.	.	.	.
.	.	8ree	.	.	.	.
.	.	.	.	.	.	.
.	.	.	.	.	.	.
=14	=14	=14	=14	=14	=14	=14
*	*head:regular	*head:x	*	*	*	*
4DD	4re	4ree	4F# A	1ryy	4d a	D 
.	.	.	.	.	.	.
.	.	.	.	.	.	.
.	.	.	.	.	.	.
.	.	.	.	.	.	.
.	.	.	.	.	.	.
4DD	4re	16Ree/	4r	.	4r	.
.	.	16ree	.	.	.	.
.	.	.	.	.	.	.
.	.	8ree	.	.	.	.
.	.	.	.	.	.	.
.	.	.	.	.	.	.
4DD	4re	4ree	4F# A	.	4d a	.
.	.	.	.	.	.	.
.	.	.	.	.	.	.
.	.	.	.	.	.	.
.	.	.	.	.	.	.
.	.	.	.	.	.	.
8.DD	4re	16Ree/	4r	.	4r	.
.	.	16ree	.	.	.	.
.	.	.	.	.	.	.
.	.	8ree	.	.	.	.
.	.	.	.	.	.	.
16r	.	.	.	.	.	.
=15	=15	=15	=15	=15	=15	=15
*	*head:regular	*head:x	*	*	*	*
8DD	4re	4ree	4D F A	1ryy	4d	D a
.	.	.	.	.	.	.
.	.	.	.	.	.	.
8r	.	.	.	.	.	.
.	.	.	.	.	.	.
.	.	.	.	.	.	.
4FF	4re	16Ree/	4r	.	4r	.
.	.	16ree	.	.	.	.
.	.	.	.	.	.	.
.	.	8ree	.	.	.	.
.	.	.	.	.	.	.
.	.	.	.	.	.	.
4DD	16Rf\	4ree	4F A	.	4d a	.
.	16re	.	.	.	.	.
.	.	.	.	.	.	.
.	8re	.	.	.	.	.
.	.	.	.	.	.	.
.	.	.	.	.	.	.
4FF#	4re	16Ree/	4r	.	4r	.
.	.	16ree	.	.	.	.
.	.	.	.	.	.	.
.	.	8ree	.	.	.	.
.	.	.	.	.	.	.
.	.	.	.	.	.	.
=16	=16	=16	=16	=16	=16	=16
*	*head:regular	*head:x	*	*	*	*
4GG	4re	4ree	4G B	1ryy	4d g	G 
.	.	.	.	.	.	.
.	.	.	.	.	.	.
.	.	.	.	.	.	.
.	.	.	.	.	.	.
.	.	.	.	.	.	.
4GGG#	4re	16Ree/	4r	.	4r	.
.	.	16ree	.	.	.	.
.	.	.	.	.	.	.
.	.	8ree	.	.	.	.
.	.	.	.	.	.	.
.	.	.	.	.	.	.
8GGG	4re	4ree	4G B	.	4d g	.
.	.	.	.	.	.	.
.	.	.	.	.	.	.
8r	.	.	.	.	.	.
.	.	.	.	.	.	.
.	.	.	.	.	.	.
8DD	4re	16Ree/	4r	.	4r	.
.	.	16ree	.	.	.	.
.	.	.	.	.	.	.
8r	.	8ree	.	.	.	.
.	.	.	.	.	.	.
.	.	.	.	.	.	.
=17	=17	=17	=17	=17	=17	=17
*	*head:regular	*head:x	*	*	*	*
4CC	4re	4ree	4r	1ryy	4r	C 
.	.	.	.	.	.	.
.	.	.	.	.	.	.
.	.	.	.	.	.	.
.	.	.	.	.	.	.
.	.	.	.	.	.	.
4CC	4re	12Ree/	4r	.	4r	.
.	.	.	.	.	.	.
.	.	12ree	.	.	.	.
.	.	.	.	.	.	.
.	.	12ree	.	.	.	.
.	.	.	.	.	.	.
4CC	4re	12Ree/	4r	.	4r	.
.	.	.	.	.	.	.
.	.	12ree	.	.	.	.
.	.	.	.	.	.	.
.	.	12ree	.	.	.	.
.	.	.	.	.	.	.
6GG	4re	12Ree/	4r	.	4r	.
.	.	.	.	.	.	.
.	.	12ree	.	.	.	.
.	.	.	.	.	.	.
12r	.	12ree	.	.	.	.
.	.	.	.	.	.	.
=18	=18	=18	=18	=18	=18	=18
*	*head:regular	*head:x	*	*	*	*
4CC	4re	16Ree/	4r	1ryy	4r	C 
.	.	16ree	.	.	.	.
.	.	.	.	.	.	.
.	.	8ree	.	.	.	.
.	.	.	.	.	.	.
.	.	.	.	.	.	.
4GGG	4re	16Ree/	4r	.	4r	.
.	.	16ree	.	.	.	.
.	.	.	.	.	.	.
.	.	8ree	.	.	.	.
.	.	.	.	.	.	.
.	.	.	.	.	.	.
4CC	4re	12Ree/	4r	.	4r	.
.	.	.	.	.	.	.
.	.	12ree	.	.	.	.
.	.	.	.	.	.	.
.	.	12ree	.	.	.	.
.	.	.	.	.	.	.
8EE	4re	12Ree/	4r	.	4c e g cc	.
.	.	.	.	.	.	.
.	.	12ree	.	.	.	.
8r	.	.	.	.	.	.
.	.	12ree	.	.	.	.
.	.	.	.	.	.	.
=19	=19	=19	=19	=19	=19	=19
*	*head:regular	*head:x	*	*	*	*
8.BB	12Rf\	12Ree/	4r	1ryy	4r	B >
.	.	.	.	.	.	.
.	12re	12ree	.	.	.	.
.	.	.	.	.	.	.
.	12re	12ree	.	.	.	.
16r	.	.	.	.	.	.
4FF	4re	12Ree/	4r	.	4r	.
.	.	.	.	.	.	.
.	.	12ree	.	.	.	.
.	.	.	.	.	.	.
.	.	12ree	.	.	.	.
.	.	.	.	.	.	.
4BBB	4re	4ree	12D B	.	12f b ff	.
.	.	.	.	.	.	.
.	.	.	12r	.	12r	.
.	.	.	.	.	.	.
.	.	.	12r	.	12r	.
.	.	.	.	.	.	.
4FFF	4re	12Ree/	4r	.	4r	.
.	.	.	.	.	.	.
.	.	12ree	.	.	.	.
.	.	.	.	.	.	.
.	.	12ree	.	.	.	.
.	.	.	.	.	.	.
=20	=20	=20	=20	=20	=20	=20
*	*head:regular	*head:x	*	*	*	*
4EEE	4re	12Ree/	4r	1ryy	4r	E 
.	.	.	.	.	.	.
.	.	12ree	.	.	.	.
.	.	.	.	.	.	.
.	.	12ree	.	.	.	.
.	.	.	.	.	.	.
4EEE	4re	12Ree/	12BB E G#	.	12e b ee	.
.	.	.	.	.	.	.
.	.	12ree	12r	.	12r	.
.	.	.	.	.	.	.
.	.	12ree	12r	.	12r	.
.	.	.	.	.	.	.
4EEE	4re	12Ree/	6BB E G#	.	6e b ee	.
.	.	.	.	.	.	.
.	.	12ree	.	.	.	.
.	.	.	.	.	.	.
.	.	12ree	12r	.	12r	.
.	.	.	.	.	.	.
6BBB	4re	12Ree/	4r	.	4r	.
.	.	.	.	.	.	.
.	.	12ree	.	.	.	.
.	.	.	.	.	.	.
12r	.	12ree	.	.	.	.
.	.	.	.	.	.	.
=21	=21	=21	=21	=21	=21	=21
*	*head:regular	*head:x	*	*	*	*
4AAA	4re	16Ree/	4C E A	1ryy	4e a ee	A a
.	.	16ree	.	.	.	.
.	.	.	.	.	.	.
.	.	8ree	.	.	.	.
.	.	.	.	.	.	.
.	.	.	.	.	.	.
4CC	4re	16Ree/	4r	.	4r	.
.	.	16ree	.	.	.	.
.	.	.	.	.	.	.
.	.	8ree	.	.	.	.
.	.	.	.	.	.	.
.	.	.	.	.	.	.
4AAA	4re	16Ree/	4r	.	4r	.
.	.	16ree	.	.	.	.
.	.	.	.	.	.	.
.	.	8ree	.	.	.	.
.	.	.	.	.	.	.
.	.	.	.	.	.	.
4AAA	4re	16Ree/	4r	.	4r	.
.	.	16ree	.	.	.	.
.	.	.	.	.	.	.
.	.	8ree	.	.	.	.
.	.	.	.	.	.	.
.	.	.	.	.	.	.
=22	=22	=22	=22	=22	=22	=22
*	*head:regular	*head:x	*	*	*	*
4AAA	4re	16Ree/	4r	1ryy	4r	A a
.	.	16ree	.	.	.	.
.	.	.	.	.	.	.
.	.	8ree	.	.	.	.
.	.	.	.	.	.	.
.	.	.	.	.	.	.
4EE	4re	16Ree/	4C E A	.	4e a ee	.
.	.	16ree	.	.	.	.
.	.	.	.	.	.	.
.	.	8ree	.	.	.	.
.	.	.	.	.	.	.
.	.	.	.	.	.	.
4AA	4re	16Ree/	4r	.	6c e a ee	.
.	.	16ree	.	.	.	.
.	.	.	.	.	.	.
.	.	8ree	.	.	.	.
.	.	.	.	.	12r	.
.	.	.	.	.	.	.
4CC	4re	16Ree/	4r	.	4r	.
.	.	16ree	.	.	.	.
.	.	.	.	.	.	.
.	.	8ree	.	.	.	.
.	.	.	.	.	.	.
.	.	.	.	.	.	.
=23	=23	=23	=23	=23	=23	=23
*	*head:regular	*head:x	*	*	*	*
4GGG	4re	16Ree/	4G A#	1ryy	4d g	G a
.	.	16ree	.	.	.	.
.	.	.	.	.	.	.
.	.	8ree	.	.	.	.
.	.	.	.	.	.	.
.	.	.	.	.	.	.
4FFF#	4re	16Ree/	4r	.	4r	.
.	.	16ree	.	.	.	.
.	.	.	.	.	.	.
.	.	8ree	.	.	.	.
.	.	.	.	.	.	.
.	.	.	.	.	.	.
4GGG	16Rf\	16Ree/	4r	.	4r	.
.	16re	16ree	.	.	.	.
.	.	.	.	.	.	.
.	8re	8ree	.	.	.	.
.	.	.	.	.	.	.
.	.	.	.	.	.	.
4EEE	4re	16Ree/	4r	.	4r	.
.	.	16ree	.	.	.	.
.	.	.	.	.	.	.
.	.	8ree	.	.	.	.
.	.	.	.	.	.	.
.	.	.	.	.	.	.
=24	=24	=24	=24	=24	=24	=24
*	*head:regular	*head:x	*	*	*	*
4EEE	4re	16Ree/	4r	1ryy	4r	C 
.	.	16ree	.	.	.	.
.	.	.	.	.	.	.
.	.	8ree	.	.	.	.
.	.	.	.	.	.	.
.	.	.	.	.	.	.
4GGG	4re	16Ree/	4r	.	6c e g cc	.
.	.	16ree	.	.	.	.
.	.	.	.	.	.	.
.	.	8ree	.	.	.	.
.	.	.	.	.	12r	.
.	.	.	.	.	.	.
8CC	4re	4ree	4r	.	4c e g cc	.
.	.	.	.	.	.	.
.	.	.	.	.	.	.
8r	.	.	.	.	.	.
.	.	.	.	.	.	.
.	.	.	.	.	.	.
8EE	16Rf\	16Ree/	4r	.	4r	.
.	16re	16ree	.	.	.	.
.	.	.	.	.	.	.
8r	8re	8ree	.	.	.	.
.	.	.	.	.	.	.
.	.	.	.	.	.	.
=25	=25	=25	=25	=25	=25	=25
*	*head:regular	*head:x	*	*	*	*
4FF	4re	4ree	4r	1ryy	4r	F 
.	.	.	.	.	.	.
.	.	.	.	.	.	.
.	.	.	.	.	.	.
.	.	.	.	.	.	.
.	.	.	.	.	.	.
4CC	4re	12Ree/	4r	.	4r	.
.	.	.	.	.	.	.
.	.	12ree	.	.	.	.
.	.	.	.	.	.	.
.	.	12ree	.	.	.	.
.	.	.	.	.	.	.
6CC	12Rf\	12Ree/	4r	.	4r	.
.	.	.	.	.	.	.
.	12re	12ree	.	.	.	.
.	.	.	.	.	.	.
12r	12re	12ree	.	.	.	.
.	.	.	.	.	.	.
4FFF	4re	12Ree/	4r	.	4r	.
.	.	.	.	.	.	.
.	.	12ree	.	.	.	.
.	.	.	.	.	.	.
.	.	12ree	.	.	.	.
.	.	.	.	.	.	.
=26	=26	=26	=26	=26	=26	=26
*	*head:regular	*head:x	*	*	*	*
4AAA#	4re	12Ree/	4r	1ryy	4r	B 
.	.	.	.	.	.	.
.	.	12ree	.	.	.	.
.	.	.	.	.	.	.
.	.	12ree	.	.	.	.
.	.	.	.	.	.	.
4AAA#	4re	12Ree/	4r	.	4r	.
.	.	.	.	.	.	.
.	.	12ree	.	.	.	.
.	.	.	.	.	.	.
.	.	12ree	.	.	.	.
.	.	.	.	.	.	.
4AAA#	4re	12Ree/	6D A#	.	6f a# ff	.
.	.	.	.	.	.	.
.	.	12ree	.	.	.	.
.	.	.	.	.	.	.
.	.	12ree	12r	.	12r	.
.	.	.	.	.	.	.
8.DD	4re	12Ree/	4D A#	.	4f a# ff	.
.	.	.	.	.	.	.
.	.	12ree	.	.	.	.
.	.	.	.	.	.	.
.	.	12ree	.	.	.	.
16r	.	.	.	.	.	.
=27	=27	=27	=27	=27	=27	=27
*	*head:regular	*head:x	*	*	*	*
8EEE	4re	4ree	4r	1ryy	4r	E a
.	.	.	.	.	.	.
.	.	.	.	.	.	.
8r	.	.	.	.	.	.
.	.	.	.	.	.	.
.	.	.	.	.	.	.
8.DD#	4re	12Ree/	4r	.	4r	.
.	.	.	.	.	.	.
.	.	12ree	.	.	.	.
.	.	.	.	.	.	.
.	.	12ree	.	.	.	.
16r	.	.	.	.	.	.
4EE	4re	12Ree/	4G B	.	4e b ee bb	.
.	.	.	.	.	.	.
.	.	12ree	.	.	.	.
.	.	.	.	.	.	.
.	.	12ree	.	.	.	.
.	.	.	.	.	.	.
4BBB	4re	16Ree/	4r	.	4r	.
.	.	16ree	.	.	.	.
.	.	.	.	.	.	.
.	.	8ree	.	.	.	.
.	.	.	.	.	.	.
.	.	.	.	.	.	.
=28	=28	=28	=28	=28	=28	=28
*	*head:regular	*head:x	*	*	*	*
4D#	4re	12Ree/	4r	1ryy	4r	E a
.	.	.	.	.	.	.
.	.	12ree	.	.	.	.
.	.	.	.	.	.	.
.	.	12ree	.	.	.	.
.	.	.	.	.	.	.
4F#	4re	12Ree/	12D# F# A#	.	12d#	.
.	.	.	.	.	.	.
.	.	12ree	12r	.	12r	.
.	.	.	.	.	.	.
.	.	12ree	12r	.	12r	.
.	.	.	.	.	.	.
4GG#	4re	12Ree/	6D# G#	.	6c d#	A 
.	.	.	.	.	.	.
.	.	12ree	.	.	.	.
.	.	.	.	.	.	.
.	.	12ree	12r	.	12r	.
.	.	.	.	.	.	.
4DD#	4re	12Ree/	4C D# G#	.	4d#	.
.	.	.	.	.	.	.
.	.	12ree	.	.	.	.
.	.	.	.	.	.	.
.	.	12ree	.	.	.	.
.	.	.	.	.	.	.
=29	=29	=29	=29	=29	=29	=29
*	*head:regular	*head:x	*	*	*	*
6DD	12Rf\	12Ree/	4r	1ryy	4r	D a
.	.	.	.	.	.	.
.	12re	12ree	.	.	.	.
.	.	.	.	.	.	.
12r	12re	12ree	.	.	.	.
.	.	.	.	.	.	.
8.AAA	4re	16Ree/	4r	.	4r	.
.	.	16ree	.	.	.	.
.	.	.	.	.	.	.
.	.	8ree	.	.	.	.
.	.	.	.	.	.	.
16r	.	.	.	.	.	.
4DD	12Rf\	12Ree/	4D F A	.	4d	.
.	.	.	.	.	.	.
.	12re	12ree	.	.	.	.
.	.	.	.	.	.	.
.	12re	12ree	.	.	.	.
.	.	.	.	.	.	.
4AAA	4re	16Ree/	4r	.	4r	.
.	.	16ree	.	.	.	.
.	.	.	.	.	.	.
.	.	8ree	.	.	.	.
.	.	.	.	.	.	.
.	.	.	.	.	.	.
=30	=30	=30	=30	=30	=30	=30
*	*head:regular	*head:x	*	*	*	*
8GGG	12Rf\	12Ree/	4r	1ryy	4r	G 
.	.	.	.	.	.	.
.	12re	12ree	.	.	.	.
8r	.	.	.	.	.	.
.	12re	12ree	.	.	.	.
.	.	.	.	.	.	.
4DD	4re	12Ree/	4r	.	4r	.
.	.	.	.	.	.	.
.	.	12ree	.	.	.	.
.	.	.	.	.	.	.
.	.	12ree	.	.	.	.
.	.	.	.	.	.	.
4GGG	12Rf\	12Ree/	6B	.	6d g dd	.
.	.	.	.	.	.	.
.	12re	12ree	.	.	.	.
.	.	.	.	.	.	.
.	12re	12ree	12r	.	12r	.
.	.	.	.	.	.	.
6DD	4re	12Ree/	4r	.	4r	.
.	.	.	.	.	.	.
.	.	12ree	.	.	.	.
.	.	.	.	.	.	.
12r	.	12ree	.	.	.	.
.	.	.	.	.	.	.
=31	=31	=31	=31	=31	=31	=31
*	*head:regular	*head:x	*	*	*	*
4CC	12Rf\	12Ree/	4r	1ryy	4r	C 
.	.	.	.	.	.	.
.	12re	12ree	.	.	.	.
.	.	.	.	.	.	.
.	12re	12ree	.	.	.	.
.	.	.	.	.	.	.
4CC	4re	12Ree/	4r	.	4r	.
.	.	.	.	.	.	.
.	.	12ree	.	.	.	.
.	.	.	.	.	.	.
.	.	12ree	.	.	.	.
.	.	.	.	.	.	.
4CC	12Rf\	12Ree/	4E G	.	4c g	.
.	.	.	.	.	.	.
.	12re	12ree	.	.	.	.
.	.	.	.	.	.	.
.	12re	12ree	.	.	.	.
.	.	.	.	.	.	.
4GG	4re	12Ree/	4r	.	4r	.
.	.	.	.	.	.	.
.	.	12ree	.	.	.	.
.	.	.	.	.	.	.
.	.	12ree	.	.	.	.
.	.	.	.	.	.	.
=32	=32	=32	=32	=32	=32	=32
*	*head:regular	*head:x	*	*	*	*
4CC	12Rf\	12Ree/	4r	1ryy	4r	C 
.	.	.	.	.	.	.
.	12re	12ree	.	.	.	.
.	.	.	.	.	.	.
.	12re	12ree	.	.	.	.
.	.	.	.	.	.	.
4BBB	4re	12Ree/	4r	.	4c e g cc	.
.	.	.	.	.	.	.
.	.	12ree	.	.	.	.
.	.	.	.	.	.	.
.	.	12ree	.	.	.	.
.	.	.	.	.	.	.
8CC	4re	16Ree/	4E	.	4c g cc gg	.
.	.	16ree	.	.	.	.
.	.	.	.	.	.	.
8r	.	8ree	.	.	.	.
.	.	.	.	.	.	.
.	.	.	.	.	.	.
8GG	4re	16Ree/	4r	.	4r	.
.	.	16ree	.	.	.	.
.	.	.	.	.	.	.
8r	.	8ree	.	.	.	.
.	.	.	.	.	.	.
.	.	.	.	.	.	.
=33	=33	=33	=33	=33	=33	=33
*	*head:regular	*head:x	*	*	*	*
4CC	4re	4ree	4r	1ryy	4r	C 
.	.	.	.	.	.	.
.	.	.	.	.	.	.
.	.	.	.	.	.	.
.	.	.	.	.	.	.
.	.	.	.	.	.	.
8.GGG	4re	12Ree/	4r	.	4r	.
.	.	.	.	.	.	.
.	.	12ree	.	.	.	.
.	.	.	.	.	.	.
.	.	12ree	.	.	.	.
16r	.	.	.	.	.	.
6CC	4re	12Ree/	4E G	.	4c g	.
.	.	.	.	.	.	.
.	.	12ree	.	.	.	.
.	.	.	.	.	.	.
12r	.	12ree	.	.	.	.
.	.	.	.	.	.	.
4EE	4re	16Ree/	4r	.	4r	.
.	.	16ree	.	.	.	.
.	.	.	.	.	.	.
.	.	8ree	.	.	.	.
.	.	.	.	.	.	.
.	.	.	.	.	.	.
=34	=34	=34	=34	=34	=34	=34
*	*head:regular	*head:x	*	*	*	*
4CC	4re	12Ree/	4r	1ryy	4r	C 
.	.	.	.	.	.	.
.	.	12ree	.	.	.	.
.	.	.	.	.	.	.
.	.	12ree	.	.	.	.
.	.	.	.	.	.	.
4CC	4re	12Ree/	4r	.	4r	.
.	.	.	.	.	.	.
.	.	12ree	.	.	.	.
.	.	.	.	.	.	.
.	.	12ree	.	.	.	.
.	.	.	.	.	.	.
4CC	4re	12Ree/	6C E G	.	6c	.
.	.	.	.	.	.	.
.	.	12ree	.	.	.	.
.	.	.	.	.	.	.
.	.	12ree	12r	.	12r	.
.	.	.	.	.	.	.
8.BBB	4re	16Ree/	4r	.	4r	.
.	.	16ree	.	.	.	.
.	.	.	.	.	.	.
.	.	8ree	.	.	.	.
.	.	.	.	.	.	.
16r	.	.	.	.	.	.
=35	=35	=35	=35	=35	=35	=35
*	*head:regular	*head:x	*	*	*	*
8BBB	4re	12Ree/	4r	1ryy	4r	B >
.	.	.	.	.	.	.
.	.	12ree	.	.	.	.
8r	.	.	.	.	.	.
.	.	12ree	.	.	.	.
.	.	.	.	.	.	.
4BBB	4re	12Ree/	4r	.	4r	.
.	.	.	.	.	.	.
.	.	12ree	.	.	.	.
.	.	.	.	.	.	.
.	.	12ree	.	.	.	.
.	.	.	.	.	.	.
4BBB	4re	12Ree/	4D B	.	4f b ff	.
.	.	.	.	.	.	.
.	.	12ree	.	.	.	.
.	.	.	.	.	.	.
.	.	12ree	.	.	.	.
.	.	.	.	.	.	.
4DD	4re	16Ree/	4r	.	4r	.
.	.	16ree	.	.	.	.
.	.	.	.	.	.	.
.	.	8ree	.	.	.	.
.	.	.	.	.	.	.
.	.	.	.	.	.	.
=36	=36	=36	=36	=36	=36	=36
*	*head:regular	*head:x	*	*	*	*
4EEE	4re	16Ree/	4r	1ryy	4r	E 
.	.	16ree	.	.	.	.
.	.	.	.	.	.	.
.	.	8ree	.	.	.	.
.	.	.	.	.	.	.
.	.	.	.	.	.	.
4DD#	12Rf\	16Ree/	4r	.	4r	.
.	.	16ree	.	.	.	.
.	12re	.	.	.	.	.
.	.	8ree	.	.	.	.
.	12re	.	.	.	.	.
.	.	.	.	.	.	.
4EE	4re	4ree	4G#	.	4e b ee bb	.
.	.	.	.	.	.	.
.	.	.	.	.	.	.
.	.	.	.	.	.	.
.	.	.	.	.	.	.
.	.	.	.	.	.	.
4GG#	4re	16Ree/	4r	.	4r	.
.	.	16ree	.	.	.	.
.	.	.	.	.	.	.
.	.	8ree	.	.	.	.
.	.	.	.	.	.	.
.	.	.	.	.	.	.
=37	=37	=37	=37	=37	=37	=37
*	*head:regular	*head:x	*	*	*	*
6AA	4re	12Ree/	4A	1ryy	4c e a	A a
.	.	.	.	.	.	.
.	.	12ree	.	.	.	.
.	.	.	.	.	.	.
12r	.	12ree	.	.	.	.
.	.	.	.	.	.	.
4EE	4re	12Ree/	4r	.	4r	.
.	.	.	.	.	.	.
.	.	12ree	.	.	.	.
.	.	.	.	.	.	.
.	.	12ree	.	.	.	.
.	.	.	.	.	.	.
4EE	12Rf\	16Ree/	4r	.	4r	.
.	.	16ree	.	.	.	.
.	12re	.	.	.	.	.
.	.	8ree	.	.	.	.
.	12re	.	.	.	.	.
.	.	.	.	.	.	.
4AAA#	4re	12Ree/	4r	.	4r	.
.	.	.	.	.	.	.
.	.	12ree	.	.	.	.
.	.	.	.	.	.	.
.	.	12ree	.	.	.	.
.	.	.	.	.	.	.
=38	=38	=38	=38	=38	=38	=38
*	*head:regular	*head:x	*	*	*	*
4AAA	4re	12Ree/	4r	1ryy	4r	A a
.	.	.	.	.	.	.
.	.	12ree	.	.	.	.
.	.	.	.	.	.	.
.	.	12ree	.	.	.	.
.	.	.	.	.	.	.
4AAA	4re	12Ree/	4C E A	.	4e a ee	.
.	.	.	.	.	.	.
.	.	12ree	.	.	.	.
.	.	.	.	.	.	.
.	.	12ree	.	.	.	.
.	.	.	.	.	.	.
4AAA	4re	12Ree/	4r	.	6c e a ee	.
.	.	.	.	.	.	.
.	.	12ree	.	.	.	.
.	.	.	.	.	.	.
.	.	12ree	.	.	12r	.
.	.	.	.	.	.	.
4EEE	4re	12Ree/	4r	.	4r	.
.	.	.	.	.	.	.
.	.	12ree	.	.	.	.
.	.	.	.	.	.	.
.	.	12ree	.	.	.	.
.	.	.	.	.	.	.
=39	=39	=39	=39	=39	=39	=39
*	*head:regular	*head:x	*	*	*	*
4GGG	12Rf\	12Ree/	4G A#	1ryy	4d g	G a
.	.	.	.	.	.	.
.	12re	12ree	.	.	.	.
.	.	.	.	.	.	.
.	12re	12ree	.	.	.	.
.	.	.	.	.	.	.
6DD	4re	12Ree/	4r	.	4r	.
.	.	.	.	.	.	.
.	.	12ree	.	.	.	.
.	.	.	.	.	.	.
12r	.	12ree	.	.	.	.
.	.	.	.	.	.	.
4GGG	4re	16Ree/	4r	.	4r	.
.	.	16ree	.	.	.	.
.	.	.	.	.	.	.
.	.	8ree	.	.	.	.
.	.	.	.	.	.	.
.	.	.	.	.	.	.
4BBB	4re	12Ree/	4r	.	4r	.
.	.	.	.	.	.	.
.	.	12ree	.	.	.	.
.	.	.	.	.	.	.
.	.	12ree	.	.	.	.
.	.	.	.	.	.	.
=40	=40	=40	=40	=40	=40	=40
*	*head:regular	*head:x	*	*	*	*
4CC	4re	12Ree/	4r	1ryy	4r	C 
.	.	.	.	.	.	.
.	.	12ree	.	.	.	.
.	.	.	.	.	.	.
.	.	12ree	.	.	.	.
.	.	.	.	.	.	.
4BBB	4re	12Ree/	6G	.	6c e g	.
.	.	.	.	.	.	.
.	.	12ree	.	.	.	.
.	.	.	.	.	.	.
.	.	12ree	12r	.	12r	.
.	.	.	.	.	.	.
8CC	4re	16Ree/	4G	.	4c e g	.
.	.	16ree	.	.	.	.
.	.	.	.	.	.	.
8r	.	8ree	.	.	.	.
.	.	.	.	.	.	.
.	.	.	.	.	.	.
8GGG	16Rf\	16Ree/	4r	.	4r	.
.	16re	16ree	.	.	.	.
.	.	.	.	.	.	.
8r	8re	8ree	.	.	.	.
.	.	.	.	.	.	.
.	.	.	.	.	.	.
=41	=41	=41	=41	=41	=41	=41
*	*head:regular	*head:x	*	*	*	*
4FFF	4re	4ree	4r	1ryy	4r	F 
.	.	.	.	.	.	.
.	.	.	.	.	.	.
.	.	.	.	.	.	.
.	.	.	.	.	.	.
.	.	.	.	.	.	.
4BBB	4re	16Ree/	4r	.	4r	.
.	.	16ree	.	.	.	.
.	.	.	.	.	.	.
.	.	8ree	.	.	.	.
.	.	.	.	.	.	.
.	.	.	.	.	.	.
4CC	4re	4ree	4r	.	4r	.
.	.	.	.	.	.	.
.	.	.	.	.	.	.
.	.	.	.	.	.	.
.	.	.	.	.	.	.
.	.	.	.	.	.	.
4FF	4re	16Ree/	4r	.	4r	.
.	.	16ree	.	.	.	.
.	.	.	.	.	.	.
.	.	8ree	.	.	.	.
.	.	.	.	.	.	.
.	.	.	.	.	.	.
=42	=42	=42	=42	=42	=42	=42
*	*head:regular	*head:x	*	*	*	*
4AAA#	4re	4ree	4r	1ryy	4r	B 
.	.	.	.	.	.	.
.	.	.	.	.	.	.
.	.	.	.	.	.	.
.	.	.	.	.	.	.
.	.	.	.	.	.	.
4AAA#	4re	16Ree/	4r	.	4r	.
.	.	16ree	.	.	.	.
.	.	.	.	.	.	.
.	.	8ree	.	.	.	.
.	.	.	.	.	.	.
.	.	.	.	.	.	.
4AAA#	4re	4ree	4AA# D F A#	.	4r	.
.	.	.	.	.	.	.
.	.	.	.	.	.	.
.	.	.	.	.	.	.
.	.	.	.	.	.	.
.	.	.	.	.	.	.
4FF#	4re	16Ree/	4r	.	4r	.
.	.	16ree	.	.	.	.
.	.	.	.	.	.	.
.	.	8ree	.	.	.	.
.	.	.	.	.	.	.
.	.	.	.	.	.	.
=43	=43	=43	=43	=43	=43	=43
*	*head:regular	*head:x	*	*	*	*
4GG	4re	4ree	4r	1ryy	4r	E a
.	.	.	.	.	.	.
.	.	.	.	.	.	.
.	.	.	.	.	.	.
.	.	.	.	.	.	.
.	.	.	.	.	.	.
4FFF	4re	16Ree/	4r	.	4r	.
.	.	16ree	.	.	.	.
.	.	.	.	.	.	.
.	.	8ree	.	.	.	.
.	.	.	.	.	.	.
.	.	.	.	.	.	.
4EEE	4re	4ree	4E G B	.	4e	.
.	.	.	.	.	.	.
.	.	.	.	.	.	.
.	.	.	.	.	.	.
.	.	.	.	.	.	.
.	.	.	.	.	.	.
4GGG	4re	16Ree/	4r	.	4r	.
.	.	16ree	.	.	.	.
.	.	.	.	.	.	.
.	.	8ree	.	.	.	.
.	.	.	.	.	.	.
.	.	.	.	.	.	.
=44	=44	=44	=44	=44	=44	=44
*	*head:regular	*head:x	*	*	*	*
4AAA	16Rf\	4ree	4r	1ryy	4r	A 
.	16re	.	.	.	.	.
.	.	.	.	.	.	.
.	8re	.	.	.	.	.
.	.	.	.	.	.	.
.	.	.	.	.	.	.
4EE	16Rf\	16Ree/	4r	.	4r	.
.	16re	16ree	.	.	.	.
.	.	.	.	.	.	.
.	8re	8ree	.	.	.	.
.	.	.	.	.	.	.
.	.	.	.	.	.	.
4AAA	4re	4ree	4r	.	4r	.
.	.	.	.	.	.	.
.	.	.	.	.	.	.
.	.	.	.	.	.	.
.	.	.	.	.	.	.
.	.	.	.	.	.	.
4EEE	4re	16Ree/	4E A	.	4c# e	.
.	.	16ree	.	.	.	.
.	.	.	.	.	.	.
.	.	8ree	.	.	.	.
.	.	.	.	.	.	.
.	.	.	.	.	.	.
=45	=45	=45	=45	=45	=45	=45
*	*head:regular	*head:x	*	*	*	*
4DD	4re	4ree	4D F# A	1ryy	4d	D 
.	.	.	.	.	.	.
.	.	.	.	.	.	.
.	.	.	.	.	.	.
.	.	.	.	.	.	.
.	.	.	.	.	.	.
4DD	4re	16Ree/	4r	.	4r	.
.	.	16ree	.	.	.	.
.	.	.	.	.	.	.
.	.	8ree	.	.	.	.
.	.	.	.	.	.	.
.	.	.	.	.	.	.
4DD	4re	4ree	4r	.	4r	.
.	.	.	.	.	.	.
.	.	.	.	.	.	.
.	.	.	.	.	.	.
.	.	.	.	.	.	.
.	.	.	.	.	.	.
6AA	4re	16Ree/	4r	.	4r	.
.	.	16ree	.	.	.	.
.	.	.	.	.	.	.
.	.	8ree	.	.	.	.
12r	.	.	.	.	.	.
.	.	.	.	.	.	.
=46	=46	=46	=46	=46	=46	=46
*	*head:regular	*head:x	*	*	*	*
4D	4re	4ree	4r	1ryy	4r	D 
.	.	.	.	.	.	.
.	.	.	.	.	.	.
.	.	.	.	.	.	.
.	.	.	.	.	.	.
.	.	.	.	.	.	.
4F#	4re	16Ree/	4F# A	.	4d a	.
.	.	16ree	.	.	.	.
.	.	.	.	.	.	.
.	.	8ree	.	.	.	.
.	.	.	.	.	.	.
.	.	.	.	.	.	.
4DD	4re	4ree	6F# A	.	6d a	.
.	.	.	.	.	.	.
.	.	.	.	.	.	.
.	.	.	.	.	.	.
.	.	.	12r	.	12r	.
.	.	.	.	.	.	.
8.AAA	4re	16Ree/	4r	.	4r	.
.	.	16ree	.	.	.	.
.	.	.	.	.	.	.
.	.	8ree	.	.	.	.
.	.	.	.	.	.	.
16r	.	.	.	.	.	.
=47	=47	=47	=47	=47	=47	=47
*	*head:regular	*head:x	*	*	*	*
8.DD	4re	4ree	4D F A	1ryy	4d	D a
.	.	.	.	.	.	.
.	.	.	.	.	.	.
.	.	.	.	.	.	.
.	.	.	.	.	.	.
16r	.	.	.	.	.	.
4DD	4re	16Ree/	4r	.	4r	.
.	.	16ree	.	.	.	.
.	.	.	.	.	.	.
.	.	8ree	.	.	.	.
.	.	.	.	.	.	.
.	.	.	.	.	.	.
8DD	4re	4ree	4r	.	4r	.
.	.	.	.	.	.	.
.	.	.	.	.	.	.
8r	.	.	.	.	.	.
.	.	.	.	.	.	.
.	.	.	.	.	.	.
4AAA	4re	16Ree/	4r	.	4r	.
.	.	16ree	.	.	.	.
.	.	.	.	.	.	.
.	.	8ree	.	.	.	.
.	.	.	.	.	.	.
.	.	.	.	.	.	.
=48	=48	=48	=48	=48	=48	=48
*	*head:regular	*head:x	*	*	*	*
4GGG	12Rf\	4ree	4r	1ryy	4r	G 
.	.	.	.	.	.	.
.	12re	.	.	.	.	.
.	.	.	.	.	.	.
.	12re	.	.	.	.	.
.	.	.	.	.	.	.
4FFF#	4re	16Ree/	6D G B	.	6d	.
.	.	16ree	.	.	.	.
.	.	.	.	.	.	.
.	.	8ree	.	.	.	.
.	.	.	12r	.	12r	.
.	.	.	.	.	.	.
8GGG	4re	4ree	4D G B	.	4d	.
.	.	.	.	.	.	.
.	.	.	.	.	.	.
8r	.	.	.	.	.	.
.	.	.	.	.	.	.
.	.	.	.	.	.	.
8DD	16Rf\	16Ree/	4r	.	4r	.
.	16re	16ree	.	.	.	.
.	.	.	.	.	.	.
8r	8re	8ree	.	.	.	.
.	.	.	.	.	.	.
.	.	.	.	.	.	.
=49	=49	=49	=49	=49	=49	=49
*	*head:regular	*head:x	*	*	*	*
4CC	4re	4ree	4r	1ryy	4r	C 
.	.	.	.	.	.	.
.	.	.	.	.	.	.
.	.	.	.	.	.	.
.	.	.	.	.	.	.
.	.	.	.	.	.	.
8.GGG	4re	16Ree/	4r	.	4r	.
.	.	16ree	.	.	.	.
.	.	.	.	.	.	.
.	.	8ree	.	.	.	.
.	.	.	.	.	.	.
16r	.	.	.	.	.	.
6CC	4re	16Ree/	4C E G	.	4c	.
.	.	16ree	.	.	.	.
.	.	.	.	.	.	.
.	.	8ree	.	.	.	.
12r	.	.	.	.	.	.
.	.	.	.	.	.	.
4GG	4re	16Ree/	4r	.	4r	.
.	.	16ree	.	.	.	.
.	.	.	.	.	.	.
.	.	8ree	.	.	.	.
.	.	.	.	.	.	.
.	.	.	.	.	.	.
=50	=50	=50	=50	=50	=50	=50
*	*head:regular	*head:x	*	*	*	*
4CC	4re	16Ree/	4r	1ryy	4r	C 
.	.	16ree	.	.	.	.
.	.	.	.	.	.	.
.	.	8ree	.	.	.	.
.	.	.	.	.	.	.
.	.	.	.	.	.	.
4CC	4re	16Ree/	4r	.	4r	.
.	.	16ree	.	.	.	.
.	.	.	.	.	.	.
.	.	8ree	.	.	.	.
.	.	.	.	.	.	.
.	.	.	.	.	.	.
4CC	4re	16Ree/	6E G	.	6c g	.
.	.	16ree	.	.	.	.
.	.	.	.	.	.	.
.	.	8ree	.	.	.	.
.	.	.	12r	.	12r	.
.	.	.	.	.	.	.
8.GGG	4re	16Ree/	4r	.	4r	.
.	.	16ree	.	.	.	.
.	.	.	.	.	.	.
.	.	8ree	.	.	.	.
.	.	.	.	.	.	.
16r	.	.	.	.	.	.
=51	=51	=51	=51	=51	=51	=51
*	*head:regular	*head:x	*	*	*	*
8BBB	4re	16Ree/	4r	1ryy	4r	B >
.	.	16ree	.	.	.	.
.	.	.	.	.	.	.
8r	.	8ree	.	.	.	.
.	.	.	.	.	.	.
.	.	.	.	.	.	.
4FFF	4re	16Ree/	4r	.	4r	.
.	.	16ree	.	.	.	.
.	.	.	.	.	.	.
.	.	8ree	.	.	.	.
.	.	.	.	.	.	.
.	.	.	.	.	.	.
4BBB	4re	16Ree/	4D B	.	4f b ff	.
.	.	16ree	.	.	.	.
.	.	.	.	.	.	.
.	.	8ree	.	.	.	.
.	.	.	.	.	.	.
.	.	.	.	.	.	.
4FFF	4re	16Ree/	4r	.	4r	.
.	.	16ree	.	.	.	.
.	.	.	.	.	.	.
.	.	8ree	.	.	.	.
.	.	.	.	.	.	.
.	.	.	.	.	.	.
=52	=52	=52	=52	=52	=52	=52
*	*head:regular	*head:x	*	*	*	*
4EE	4re	16Ree/	4r	1ryy	4r	E 
.	.	16ree	.	.	.	.
.	.	.	.	.	.	.
.	.	8ree	.	.	.	.
.	.	.	.	.	.	.
.	.	.	.	.	.	.
4CC	4re	16Ree/	4r	.	4r	.
.	.	16ree	.	.	.	.
.	.	.	.	.	.	.
.	.	8ree	.	.	.	.
.	.	.	.	.	.	.
.	.	.	.	.	.	.
4BBB	4re	16Ree/	4r	.	4r	.
.	.	16ree	.	.	.	.
.	.	.	.	.	.	.
.	.	8ree	.	.	.	.
.	.	.	.	.	.	.
.	.	.	.	.	.	.
4GGG#	4re	16Ree/	4r	.	4r	.
.	.	16ree	.	.	.	.
.	.	.	.	.	.	.
.	.	8ree	.	.	.	.
.	.	.	.	.	.	.
.	.	.	.	.	.	.
=53	=53	=53	=53	=53	=53	=53
*	*head:regular	*head:x	*	*	*	*
4CC	4re	12Ree/	4C E A	1ryy	4e a ee	A a
.	.	.	.	.	.	.
.	.	12ree	.	.	.	.
.	.	.	.	.	.	.
.	.	12ree	.	.	.	.
.	.	.	.	.	.	.
4AAA	4re	12Ree/	4r	.	4r	.
.	.	.	.	.	.	.
.	.	12ree	.	.	.	.
.	.	.	.	.	.	.
.	.	12ree	.	.	.	.
.	.	.	.	.	.	.
4AAA	4re	12Ree/	4A	.	4c e a	.
.	.	.	.	.	.	.
.	.	12ree	.	.	.	.
.	.	.	.	.	.	.
.	.	12ree	.	.	.	.
.	.	.	.	.	.	.
6EEE	4re	12Ree/	4r	.	4r	.
.	.	.	.	.	.	.
.	.	12ree	.	.	.	.
.	.	.	.	.	.	.
12r	.	12ree	.	.	.	.
.	.	.	.	.	.	.
=54	=54	=54	=54	=54	=54	=54
*	*head:regular	*head:x	*	*	*	*
4CC	4re	12Ree/	4r	1ryy	4r	A a
.	.	.	.	.	.	.
.	.	12ree	.	.	.	.
.	.	.	.	.	.	.
.	.	12ree	.	.	.	.
.	.	.	.	.	.	.
4GG#	4re	12Ree/	4r	.	4r	.
.	.	.	.	.	.	.
.	.	12ree	.	.	.	.
.	.	.	.	.	.	.
.	.	12ree	.	.	.	.
.	.	.	.	.	.	.
4AA	4re	12Ree/	4C E A	.	4e a ee	.
.	.	.	.	.	.	.
.	.	12ree	.	.	.	.
.	.	.	.	.	.	.
.	.	12ree	.	.	.	.
.	.	.	.	.	.	.
8C	4re	12Ree/	4r	.	4r	.
.	.	.	.	.	.	.
.	.	12ree	.	.	.	.
8r	.	.	.	.	.	.
.	.	12ree	.	.	.	.
.	.	.	.	.	.	.
=55	=55	=55	=55	=55	=55	=55
*	*head:regular	*head:x	*	*	*	*
8.GG	12Rf\	12Ree/	4G A#	1ryy	4d g	G a
.	.	.	.	.	.	.
.	12re	12ree	.	.	.	.
.	.	.	.	.	.	.
.	12re	12ree	.	.	.	.
16r	.	.	.	.	.	.
4GG	4re	12Ree/	4r	.	4r	.
.	.	.	.	.	.	.
.	.	12ree	.	.	.	.
.	.	.	.	.	.	.
.	.	12ree	.	.	.	.
.	.	.	.	.	.	.
4GG	4re	12Ree/	6G A#	.	6d g	.
.	.	.	.	.	.	.
.	.	12ree	.	.	.	.
.	.	.	.	.	.	.
.	.	12ree	12r	.	12r	.
.	.	.	.	.	.	.
4AA#	12Rf\	16Ree/	4r	.	4r	.
.	.	16ree	.	.	.	.
.	12re	.	.	.	.	.
.	.	8ree	.	.	.	.
.	12re	.	.	.	.	.
.	.	.	.	.	.	.
=56	=56	=56	=56	=56	=56	=56
*	*head:regular	*head:x	*	*	*	*
4CC	4re	12Ree/	4r	1ryy	6c e g cc	C 
.	.	.	.	.	.	.
.	.	12ree	.	.	.	.
.	.	.	.	.	.	.
.	.	12ree	.	.	12r	.
.	.	.	.	.	.	.
4GGG	4re	12Ree/	4r	.	4r	.
.	.	.	.	.	.	.
.	.	12ree	.	.	.	.
.	.	.	.	.	.	.
.	.	12ree	.	.	.	.
.	.	.	.	.	.	.
8GGG	4re	4ree	4C E G	.	4c	.
.	.	.	.	.	.	.
.	.	.	.	.	.	.
8r	.	.	.	.	.	.
.	.	.	.	.	.	.
.	.	.	.	.	.	.
8EEE	4re	16Ree/	4r	.	4r	.
.	.	16ree	.	.	.	.
.	.	.	.	.	.	.
8r	.	8ree	.	.	.	.
.	.	.	.	.	.	.
.	.	.	.	.	.	.
=57	=57	=57	=57	=57	=57	=57
*	*head:regular	*head:x	*	*	*	*
4FFF	4re	4ree	4r	1ryy	4r	F 
.	.	.	.	.	.	.
.	.	.	.	.	.	.
.	.	.	.	.	.	.
.	.	.	.	.	.	.
.	.	.	.	.	.	.
4EEE	4re	12Ree/	4r	.	4r	.
.	.	.	.	.	.	.
.	.	12ree	.	.	.	.
.	.	.	.	.	.	.
.	.	12ree	.	.	.	.
.	.	.	.	.	.	.
6FFF	4re	12Ree/	4r	.	4r	.
.	.	.	.	.	.	.
.	.	12ree	.	.	.	.
.	.	.	.	.	.	.
12r	.	12ree	.	.	.	.
.	.	.	.	.	.	.
4CC	4re	16Ree/	4r	.	4r	.
.	.	16ree	.	.	.	.
.	.	.	.	.	.	.
.	.	8ree	.	.	.	.
.	.	.	.	.	.	.
.	.	.	.	.	.	.
=58	=58	=58	=58	=58	=58	=58
*	*head:regular	*head:x	*	*	*	*
4AAA#	4re	12Ree/	4r	1ryy	4r	B 
.	.	.	.	.	.	.
.	.	12ree	.	.	.	.
.	.	.	.	.	.	.
.	.	12ree	.	.	.	.
.	.	.	.	.	.	.
4AAA#	4re	12Ree/	4D A#	.	4f a# ff	.
.	.	.	.	.	.	.
.	.	12ree	.	.	.	.
.	.	.	.	.	.	.
.	.	12ree	.	.	.	.
.	.	.	.	.	.	.
4AAA#	4re	12Ree/	6D A#	.	6f a# ff	.
.	.	.	.	.	.	.
.	.	12ree	.	.	.	.
.	.	.	.	.	.	.
.	.	12ree	12r	.	12r	.
.	.	.	.	.	.	.
8.DD	4re	16Ree/	4r	.	4r	.
.	.	16ree	.	.	.	.
.	.	.	.	.	.	.
.	.	8ree	.	.	.	.
.	.	.	.	.	.	.
16r	.	.	.	.	.	.
=59	=59	=59	=59	=59	=59	=59
*	*head:regular	*head:x	*	*	*	*
8EEE	4re	12Ree/	4G B	1ryy	4e b	E a
.	.	.	.	.	.	.
.	.	12ree	.	.	.	.
8r	.	.	.	.	.	.
.	.	12ree	.	.	.	.
.	.	.	.	.	.	.
8.BBB	4re	12Ree/	4r	.	4r	.
.	.	.	.	.	.	.
.	.	12ree	.	.	.	.
.	.	.	.	.	.	.
.	.	12ree	.	.	.	.
16r	.	.	.	.	.	.
4EEE	4re	12Ree/	4r	.	4r	.
.	.	.	.	.	.	.
.	.	12ree	.	.	.	.
.	.	.	.	.	.	.
.	.	12ree	.	.	.	.
.	.	.	.	.	.	.
4BBB	4re	16Ree/	4r	.	4r	.
.	.	16ree	.	.	.	.
.	.	.	.	.	.	.
.	.	8ree	.	.	.	.
.	.	.	.	.	.	.
.	.	.	.	.	.	.
=60	=60	=60	=60	=60	=60	=60
*	*head:regular	*head:x	*	*	*	*
4DD#	4re	16Ree/	4r	1ryy	4r	E a
.	.	16ree	.	.	.	.
.	.	.	.	.	.	.
.	.	8ree	.	.	.	.
.	.	.	.	.	.	.
.	.	.	.	.	.	.
4CC#	12Rf\	16Ree/	6D# F# A#	.	6d#	.
.	.	16ree	.	.	.	.
.	12re	.	.	.	.	.
.	.	8ree	.	.	.	.
.	12re	.	12r	.	12r	.
.	.	.	.	.	.	.
4CC	4re	4ree	6D# G#	.	6c d#	A 
.	.	.	.	.	.	.
.	.	.	.	.	.	.
.	.	.	.	.	.	.
.	.	.	12r	.	12r	.
.	.	.	.	.	.	.
4DD	4re	16Ree/	4r	.	4r	.
.	.	16ree	.	.	.	.
.	.	.	.	.	.	.
.	.	8ree	.	.	.	.
.	.	.	.	.	.	.
.	.	.	.	.	.	.
=61	=61	=61	=61	=61	=61	=61
*	*head:regular	*head:x	*	*	*	*
6DD	4re	16Ree/	4r	1ryy	4r	D a
.	.	16ree	.	.	.	.
.	.	.	.	.	.	.
.	.	8ree	.	.	.	.
12r	.	.	.	.	.	.
.	.	.	.	.	.	.
4DD	4re	16Ree/	4r	.	4r	.
.	.	16ree	.	.	.	.
.	.	.	.	.	.	.
.	.	8ree	.	.	.	.
.	.	.	.	.	.	.
.	.	.	.	.	.	.
4DD	4re	16Ree/	4F A	.	4d a	.
.	.	16ree	.	.	.	.
.	.	.	.	.	.	.
.	.	8ree	.	.	.	.
.	.	.	.	.	.	.
.	.	.	.	.	.	.
4AAA	4re	16Ree/	4r	.	4r	.
.	.	16ree	.	.	.	.
.	.	.	.	.	.	.
.	.	8ree	.	.	.	.
.	.	.	.	.	.	.
.	.	.	.	.	.	.
=62	=62	=62	=62	=62	=62	=62
*	*head:regular	*head:x	*	*	*	*
4GGG	4re	16Ree/	4r	1ryy	4r	G 
.	.	16ree	.	.	.	.
.	.	.	.	.	.	.
.	.	8ree	.	.	.	.
.	.	.	.	.	.	.
.	.	.	.	.	.	.
4FFF#	4re	16Ree/	4r	.	4r	.
.	.	16ree	.	.	.	.
.	.	.	.	.	.	.
.	.	8ree	.	.	.	.
.	.	.	.	.	.	.
.	.	.	.	.	.	.
4GGG	4re	16Ree/	4G B	.	4d g	.
.	.	16ree	.	.	.	.
.	.	.	.	.	.	.
.	.	8ree	.	.	.	.
.	.	.	.	.	.	.
.	.	.	.	.	.	.
4DD	4re	16Ree/	4r	.	4r	.
.	.	16ree	.	.	.	.
.	.	.	.	.	.	.
.	.	8ree	.	.	.	.
.	.	.	.	.	.	.
.	.	.	.	.	.	.
=63	=63	=63	=63	=63	=63	=63
*	*head:regular	*head:x	*	*	*	*
4CC	4re	16Ree/	4r	1ryy	4r	C 
.	.	16ree	.	.	.	.
.	.	.	.	.	.	.
.	.	8ree	.	.	.	.
.	.	.	.	.	.	.
.	.	.	.	.	.	.
6CC	16Rcc\	16Ree/	4r	.	4r	.
.	16re	16ree	.	.	.	.
.	.	.	.	.	.	.
.	8re	8ree	.	.	.	.
12r	.	.	.	.	.	.
.	.	.	.	.	.	.
4CC	4re	16Ree/	4G	.	4c e g	.
.	.	16ree	.	.	.	.
.	.	.	.	.	.	.
.	.	8ree	.	.	.	.
.	.	.	.	.	.	.
.	.	.	.	.	.	.
4GGG	4re	16Ree/	4r	.	4r	.
.	.	16ree	.	.	.	.
.	.	.	.	.	.	.
.	.	8ree	.	.	.	.
.	.	.	.	.	.	.
.	.	.	.	.	.	.
=64	=64	=64	=64	=64	=64	=64
*	*head:regular	*head:x	*	*	*	*
4C	4re	16Ree/	4C E G	1ryy	4c	C 
.	.	16ree	.	.	.	.
.	.	.	.	.	.	.
.	.	8ree	.	.	.	.
.	.	.	.	.	.	.
.	.	.	.	.	.	.
4GG	4re	16Ree/	4r	.	4r	.
.	.	16ree	.	.	.	.
.	.	.	.	.	.	.
.	.	8ree	.	.	.	.
.	.	.	.	.	.	.
.	.	.	.	.	.	.
8CC	4re	4ree	4r	.	4c e g cc	.
.	.	.	.	.	.	.
.	.	.	.	.	.	.
8r	.	.	.	.	.	.
.	.	.	.	.	.	.
.	.	.	.	.	.	.
4r	16Rf\	16Ree/	4r	.	4r	.
.	16re	16ree	.	.	.	.
.	.	.	.	.	.	.
.	8re	8ree	.	.	.	.
.	.	.	.	.	.	.
.	.	.	.	.	.	.
=65	=65	=65	=65	=65	=65	=65
*	*head:regular	*head:x	*	*	*	*
4CC	4re	4ree	4r	1ryy	4r	C 
.	.	.	.	.	.	.
.	.	.	.	.	.	.
.	.	.	.	.	.	.
.	.	.	.	.	.	.
.	.	.	.	.	.	.
4CC	4re	12Ree/	4C E G	.	4c	.
.	.	.	.	.	.	.
.	.	12ree	.	.	.	.
.	.	.	.	.	.	.
.	.	12ree	.	.	.	.
.	.	.	.	.	.	.
4CC	4re	12Ree/	4r	.	4r	.
.	.	.	.	.	.	.
.	.	12ree	.	.	.	.
.	.	.	.	.	.	.
.	.	12ree	.	.	.	.
.	.	.	.	.	.	.
6CC	4re	16Ree/	4r	.	4r	.
.	.	16ree	.	.	.	.
.	.	.	.	.	.	.
.	.	8ree	.	.	.	.
12r	.	.	.	.	.	.
.	.	.	.	.	.	.
=66	=66	=66	=66	=66	=66	=66
*	*head:regular	*head:x	*	*	*	*
4r	4re	12Ree/	4r	1ryy	4r	C 
.	.	.	.	.	.	.
.	.	12ree	.	.	.	.
.	.	.	.	.	.	.
.	.	12ree	.	.	.	.
.	.	.	.	.	.	.
4GGG	4re	12Ree/	4r	.	4r	.
.	.	.	.	.	.	.
.	.	12ree	.	.	.	.
.	.	.	.	.	.	.
.	.	12ree	.	.	.	.
.	.	.	.	.	.	.
4CC	4re	12Ree/	6E G	.	6c g	.
.	.	.	.	.	.	.
.	.	12ree	.	.	.	.
.	.	.	.	.	.	.
.	.	12ree	12r	.	12r	.
.	.	.	.	.	.	.
8GGG	4re	16Ree/	4r	.	4r	.
.	.	16ree	.	.	.	.
.	.	.	.	.	.	.
8r	.	8ree	.	.	.	.
.	.	.	.	.	.	.
.	.	.	.	.	.	.
=67	=67	=67	=67	=67	=67	=67
*	*head:regular	*head:x	*	*	*	*
8.BBB	4re	12Ree/	4D B	1ryy	4f b ff	B >
.	.	.	.	.	.	.
.	.	12ree	.	.	.	.
.	.	.	.	.	.	.
.	.	12ree	.	.	.	.
16r	.	.	.	.	.	.
4FFF	4re	12Ree/	4r	.	4r	.
.	.	.	.	.	.	.
.	.	12ree	.	.	.	.
.	.	.	.	.	.	.
.	.	12ree	.	.	.	.
.	.	.	.	.	.	.
4BBB	4re	12Ree/	4r	.	4r	.
.	.	.	.	.	.	.
.	.	12ree	.	.	.	.
.	.	.	.	.	.	.
.	.	12ree	.	.	.	.
.	.	.	.	.	.	.
4FFF	4re	12Ree/	4r	.	4r	.
.	.	.	.	.	.	.
.	.	12ree	.	.	.	.
.	.	.	.	.	.	.
.	.	12ree	.	.	.	.
.	.	.	.	.	.	.
=68	=68	=68	=68	=68	=68	=68
*	*head:regular	*head:x	*	*	*	*
4EEE	4re	12Ree/	4r	1ryy	4r	E 
.	.	.	.	.	.	.
.	.	12ree	.	.	.	.
.	.	.	.	.	.	.
.	.	12ree	.	.	.	.
.	.	.	.	.	.	.
4DD#	4re	12Ree/	6BB E G#	.	6e b ee	.
.	.	.	.	.	.	.
.	.	12ree	.	.	.	.
.	.	.	.	.	.	.
.	.	12ree	12r	.	12r	.
.	.	.	.	.	.	.
4EEE	4re	12Ree/	6G#	.	6e b ee bb	.
.	.	.	.	.	.	.
.	.	12ree	.	.	.	.
.	.	.	.	.	.	.
.	.	12ree	12r	.	12r	.
.	.	.	.	.	.	.
6GGG#	4re	16Ree/	4r	.	4r	.
.	.	16ree	.	.	.	.
.	.	.	.	.	.	.
.	.	8ree	.	.	.	.
12r	.	.	.	.	.	.
.	.	.	.	.	.	.
=69	=69	=69	=69	=69	=69	=69
*	*head:regular	*head:x	*	*	*	*
6AAA	4re	12Ree/	4C E A	1ryy	4e a ee	A a
.	.	.	.	.	.	.
.	.	12ree	.	.	.	.
.	.	.	.	.	.	.
12r	.	12ree	.	.	.	.
.	.	.	.	.	.	.
8.EE	4re	12Ree/	4r	.	4r	.
.	.	.	.	.	.	.
.	.	12ree	.	.	.	.
.	.	.	.	.	.	.
.	.	12ree	.	.	.	.
16r	.	.	.	.	.	.
4AAA	4re	16Ree/	4C E A	.	4e a ee	.
.	.	16ree	.	.	.	.
.	.	.	.	.	.	.
.	.	8ree	.	.	.	.
.	.	.	.	.	.	.
.	.	.	.	.	.	.
4GG#	4re	12Ree/	4r	.	4r	.
.	.	.	.	.	.	.
.	.	12ree	.	.	.	.
.	.	.	.	.	.	.
.	.	12ree	.	.	.	.
.	.	.	.	.	.	.
=70	=70	=70	=70	=70	=70	=70
*	*head:regular	*head:x	*	*	*	*
8AA	4re	12Ree/	4C E A	1ryy	4e a ee	A a
.	.	.	.	.	.	.
.	.	12ree	.	.	.	.
8r	.	.	.	.	.	.
.	.	12ree	.	.	.	.
.	.	.	.	.	.	.
4EE	4re	12Ree/	4r	.	4r	.
.	.	.	.	.	.	.
.	.	12ree	.	.	.	.
.	.	.	.	.	.	.
.	.	12ree	.	.	.	.
.	.	.	.	.	.	.
4AAA	4re	12Ree/	4A	.	4c e a	.
.	.	.	.	.	.	.
.	.	12ree	.	.	.	.
.	.	.	.	.	.	.
.	.	12ree	.	.	.	.
.	.	.	.	.	.	.
6GGG	4re	12Ree/	4r	.	4r	.
.	.	.	.	.	.	.
.	.	12ree	.	.	.	.
.	.	.	.	.	.	.
12r	.	12ree	.	.	.	.
.	.	.	.	.	.	.
=71	=71	=71	=71	=71	=71	=71
*	*head:regular	*head:x	*	*	*	*
4GGG	4re	12Ree/	4G A#	1ryy	4d g	G a
.	.	.	.	.	.	.
.	.	12ree	.	.	.	.
.	.	.	.	.	.	.
.	.	12ree	.	.	.	.
.	.	.	.	.	.	.
4DD	4re	16Ree/	4r	.	4r	.
.	.	16ree	.	.	.	.
.	.	.	.	.	.	.
.	.	8ree	.	.	.	.
.	.	.	.	.	.	.
.	.	.	.	.	.	.
4GGG	4re	12Ree/	4G A#	.	4d g	.
.	.	.	.	.	.	.
.	.	12ree	.	.	.	.
.	.	.	.	.	.	.
.	.	12ree	.	.	.	.
.	.	.	.	.	.	.
4AAA#	4re	16Ree/	4r	.	4r	.
.	.	16ree	.	.	.	.
.	.	.	.	.	.	.
.	.	8ree	.	.	.	.
.	.	.	.	.	.	.
.	.	.	.	.	.	.
=72	=72	=72	=72	=72	=72	=72
*	*head:regular	*head:x	*	*	*	*
4CC	4re	12Ree/	4G	1ryy	4c e g	C 
.	.	.	.	.	.	.
.	.	12ree	.	.	.	.
.	.	.	.	.	.	.
.	.	12ree	.	.	.	.
.	.	.	.	.	.	.
4BBB	4re	16Ree/	4r	.	4r	.
.	.	16ree	.	.	.	.
.	.	.	.	.	.	.
.	.	8ree	.	.	.	.
.	.	.	.	.	.	.
.	.	.	.	.	.	.
8CC	4re	4ree	4C E G	.	4c	.
.	.	.	.	.	.	.
.	.	.	.	.	.	.
8r	.	.	.	.	.	.
.	.	.	.	.	.	.
.	.	.	.	.	.	.
8EE	16Rf\	16Ree/	4r	.	4r	.
.	16re	16ree	.	.	.	.
.	.	.	.	.	.	.
8r	8re	8ree	.	.	.	.
.	.	.	.	.	.	.
.	.	.	.	.	.	.
=73	=73	=73	=73	=73	=73	=73
*	*head:regular	*head:x	*	*	*	*
4FF	4re	4ree	4r	1ryy	4r	F 
.	.	.	.	.	.	.
.	.	.	.	.	.	.
.	.	.	.	.	.	.
.	.	.	.	.	.	.
.	.	.	.	.	.	.
4CC	4re	16Ree/	4r	.	4r	.
.	.	16ree	.	.	.	.
.	.	.	.	.	.	.
.	.	8ree	.	.	.	.
.	.	.	.	.	.	.
.	.	.	.	.	.	.
4FF	12Rf\	4ree	4A	.	4c f cc	.
.	.	.	.	.	.	.
.	12re	.	.	.	.	.
.	.	.	.	.	.	.
.	12re	.	.	.	.	.
.	.	.	.	.	.	.
6CC	4re	16Ree/	4r	.	4r	.
.	.	16ree	.	.	.	.
.	.	.	.	.	.	.
.	.	8ree	.	.	.	.
12r	.	.	.	.	.	.
.	.	.	.	.	.	.
=74	=74	=74	=74	=74	=74	=74
*	*head:regular	*head:x	*	*	*	*
4AAA#	12Rf\	4ree	4r	1ryy	4r	B 
.	.	.	.	.	.	.
.	12re	.	.	.	.	.
.	.	.	.	.	.	.
.	12re	.	.	.	.	.
.	.	.	.	.	.	.
4DD	4re	16Ree/	4r	.	4r	.
.	.	16ree	.	.	.	.
.	.	.	.	.	.	.
.	.	8ree	.	.	.	.
.	.	.	.	.	.	.
.	.	.	.	.	.	.
4AAA#	12Rf\	4ree	6F A#	.	6d f	.
.	.	.	.	.	.	.
.	12re	.	.	.	.	.
.	.	.	.	.	.	.
.	12re	.	12r	.	12r	.
.	.	.	.	.	.	.
8.FFF	4re	16Ree/	4r	.	4r	.
.	.	16ree	.	.	.	.
.	.	.	.	.	.	.
.	.	8ree	.	.	.	.
.	.	.	.	.	.	.
16r	.	.	.	.	.	.
=75	=75	=75	=75	=75	=75	=75
*	*head:regular	*head:x	*	*	*	*
8.EEE	12Rf\	4ree	4r	1ryy	4r	E a
.	.	.	.	.	.	.
.	12re	.	.	.	.	.
.	.	.	.	.	.	.
.	12re	.	.	.	.	.
16r	.	.	.	.	.	.
4BBB	4re	16Ree/	4r	.	4r	.
.	.	16ree	.	.	.	.
.	.	.	.	.	.	.
.	.	8ree	.	.	.	.
.	.	.	.	.	.	.
.	.	.	.	.	.	.
8EEE	12Rf\	4ree	4E G B	.	4e	.
.	.	.	.	.	.	.
.	12re	.	.	.	.	.
8r	.	.	.	.	.	.
.	12re	.	.	.	.	.
.	.	.	.	.	.	.
4BBB	4re	16Ree/	4r	.	4r	.
.	.	16ree	.	.	.	.
.	.	.	.	.	.	.
.	.	8ree	.	.	.	.
.	.	.	.	.	.	.
.	.	.	.	.	.	.
=76	=76	=76	=76	=76	=76	=76
*	*head:regular	*head:x	*	*	*	*
4AAA	12Rf\	4ree	4r	1ryy	4r	A 
.	.	.	.	.	.	.
.	12re	.	.	.	.	.
.	.	.	.	.	.	.
.	12re	.	.	.	.	.
.	.	.	.	.	.	.
4GG#	4re	16Ree/	4r	.	4r	.
.	.	16ree	.	.	.	.
.	.	.	.	.	.	.
.	.	8ree	.	.	.	.
.	.	.	.	.	.	.
.	.	.	.	.	.	.
4AA	4re	4ree	4r	.	4r	.
.	.	.	.	.	.	.
.	.	.	.	.	.	.
.	.	.	.	.	.	.
.	.	.	.	.	.	.
.	.	.	.	.	.	.
4C#	4re	16Ree/	4r	.	4r	.
.	.	16ree	.	.	.	.
.	.	.	.	.	.	.
.	.	8ree	.	.	.	.
.	.	.	.	.	.	.
.	.	.	.	.	.	.
=77	=77	=77	=77	=77	=77	=77
*	*head:regular	*head:x	*	*	*	*
4DD	16Rf\	4ree	4r	1ryy	4r	D 
.	16re	.	.	.	.	.
.	.	.	.	.	.	.
.	8re	.	.	.	.	.
.	.	.	.	.	.	.
.	.	.	.	.	.	.
4AAA	4re	16Ree/	4D F# A	.	4d	.
.	.	16ree	.	.	.	.
.	.	.	.	.	.	.
.	.	8ree	.	.	.	.
.	.	.	.	.	.	.
.	.	.	.	.	.	.
6DD	4re	4ree	4r	.	4r	.
.	.	.	.	.	.	.
.	.	.	.	.	.	.
.	.	.	.	.	.	.
12r	.	.	.	.	.	.
.	.	.	.	.	.	.
4AAA	4re	16Ree/	4r	.	4r	.
.	.	16ree	.	.	.	.
.	.	.	.	.	.	.
.	.	8ree	.	.	.	.
.	.	.	.	.	.	.
.	.	.	.	.	.	.
=78	=78	=78	=78	=78	=78	=78
*	*head:regular	*head:x	*	*	*	*
4DD	4re	4ree	4r	1ryy	4r	D 
.	.	.	.	.	.	.
.	.	.	.	.	.	.
.	.	.	.	.	.	.
.	.	.	.	.	.	.
.	.	.	.	.	.	.
4DD	4re	16Ree/	4r	.	4r	.
.	.	16ree	.	.	.	.
.	.	.	.	.	.	.
.	.	8ree	.	.	.	.
.	.	.	.	.	.	.
.	.	.	.	.	.	.
4DD	4re	4ree	6D F# A	.	6d	.
.	.	.	.	.	.	.
.	.	.	.	.	.	.
.	.	.	.	.	.	.
.	.	.	12r	.	12r	.
.	.	.	.	.	.	.
8.DD	4re	16Ree/	4r	.	4r	.
.	.	16ree	.	.	.	.
.	.	.	.	.	.	.
.	.	8ree	.	.	.	.
.	.	.	.	.	.	.
16r	.	.	.	.	.	.
=79	=79	=79	=79	=79	=79	=79
*	*head:regular	*head:x	*	*	*	*
8DD	4re	4ree	4D F A	1ryy	4d	D a
.	.	.	.	.	.	.
.	.	.	.	.	.	.
8r	.	.	.	.	.	.
.	.	.	.	.	.	.
.	.	.	.	.	.	.
8.AAA	4re	16Ree/	4r	.	4r	.
.	.	16ree	.	.	.	.
.	.	.	.	.	.	.
.	.	8ree	.	.	.	.
.	.	.	.	.	.	.
16r	.	.	.	.	.	.
4DD	4re	4ree	4r	.	4r	.
.	.	.	.	.	.	.
.	.	.	.	.	.	.
.	.	.	.	.	.	.
.	.	.	.	.	.	.
.	.	.	.	.	.	.
4AAA	4re	16Ree/	4r	.	4r	.
.	.	16ree	.	.	.	.
.	.	.	.	.	.	.
.	.	8ree	.	.	.	.
.	.	.	.	.	.	.
.	.	.	.	.	.	.
=80	=80	=80	=80	=80	=80	=80
*	*head:regular	*head:x	*	*	*	*
4GGG	4re	4ree	4r	1ryy	4r	G 
.	.	.	.	.	.	.
.	.	.	.	.	.	.
.	.	.	.	.	.	.
.	.	.	.	.	.	.
.	.	.	.	.	.	.
4FFF#	4re	16Ree/	6D G B	.	6g dd gg	.
.	.	16ree	.	.	.	.
.	.	.	.	.	.	.
.	.	8ree	.	.	.	.
.	.	.	12r	.	12r	.
.	.	.	.	.	.	.
8GGG	4re	4ree	4D G B	.	4d	.
.	.	.	.	.	.	.
.	.	.	.	.	.	.
8r	.	.	.	.	.	.
.	.	.	.	.	.	.
.	.	.	.	.	.	.
8DD	16Rf\	16Ree/	4r	.	4r	.
.	16re	16ree	.	.	.	.
.	.	.	.	.	.	.
8r	8re	8ree	.	.	.	.
.	.	.	.	.	.	.
.	.	.	.	.	.	.
=81	=81	=81	=81	=81	=81	=81
*	*head:regular	*head:x	*	*	*	*
4CC	4re	4ree	4r	1ryy	4r	C 
.	.	.	.	.	.	.
.	.	.	.	.	.	.
.	.	.	.	.	.	.
.	.	.	.	.	.	.
.	.	.	.	.	.	.
4CC	4re	16Ree/	4r	.	4r	.
.	.	16ree	.	.	.	.
.	.	.	.	.	.	.
.	.	8ree	.	.	.	.
.	.	.	.	.	.	.
.	.	.	.	.	.	.
4CC	4re	12Ree/	4r	.	4r	.
.	.	.	.	.	.	.
.	.	12ree	.	.	.	.
.	.	.	.	.	.	.
.	.	12ree	.	.	.	.
.	.	.	.	.	.	.
6EE	12Rf\	16Ree/	4r	.	4r	.
.	.	16ree	.	.	.	.
.	12re	.	.	.	.	.
.	.	8ree	.	.	.	.
12r	12re	.	.	.	.	.
.	.	.	.	.	.	.
=82	=82	=82	=82	=82	=82	=82
*	*head:regular	*head:x	*	*	*	*
4C	4re	12Ree/	4C E G	1ryy	4c	C 
.	.	.	.	.	.	.
.	.	12ree	.	.	.	.
.	.	.	.	.	.	.
.	.	12ree	.	.	.	.
.	.	.	.	.	.	.
4GG	4re	12Ree/	4r	.	4r	.
.	.	.	.	.	.	.
.	.	12ree	.	.	.	.
.	.	.	.	.	.	.
.	.	12ree	.	.	.	.
.	.	.	.	.	.	.
4CC	4re	12Ree/	4r	.	4r	.
.	.	.	.	.	.	.
.	.	12ree	.	.	.	.
.	.	.	.	.	.	.
.	.	12ree	.	.	.	.
.	.	.	.	.	.	.
8GG	4re	12Ree/	4r	.	4r	.
.	.	.	.	.	.	.
.	.	12ree	.	.	.	.
8r	.	.	.	.	.	.
.	.	12ree	.	.	.	.
.	.	.	.	.	.	.
=83	=83	=83	=83	=83	=83	=83
*	*head:regular	*head:x	*	*	*	*
8.BBB	4re	12Ree/	8.D B	1ryy	8.f b ff	B >
.	.	.	.	.	.	.
.	.	12ree	.	.	.	.
.	.	.	.	.	.	.
.	.	12ree	.	.	.	.
16r	.	.	16r	.	16r	.
4FFF	4re	12Ree/	8.D B	.	8.f b ff	.
.	.	.	.	.	.	.
.	.	12ree	.	.	.	.
.	.	.	.	.	.	.
.	.	12ree	.	.	.	.
.	.	.	16r	.	16r	.
4FFF	4re	12Ree/	8.D B	.	8.f b ff	.
.	.	.	.	.	.	.
.	.	12ree	.	.	.	.
.	.	.	.	.	.	.
.	.	12ree	.	.	.	.
.	.	.	16r	.	16r	.
4BBB	4re	12Ree/	8.D B	.	8.f b ff	.
.	.	.	.	.	.	.
.	.	12ree	.	.	.	.
.	.	.	.	.	.	.
.	.	12ree	.	.	.	.
.	.	.	16r	.	16r	.
=84	=84	=84	=84	=84	=84	=84
*	*head:regular	*head:x	*	*	*	*
4BBB	4re	12Ree/	6BB E G#	1ryy	6e b ee	E 
.	.	.	.	.	.	.
.	.	12ree	.	.	.	.
.	.	.	.	.	.	.
.	.	12ree	12r	.	12r	.
.	.	.	.	.	.	.
4GGG#	4re	16Ree/	4r	.	4r	.
.	.	16ree	.	.	.	.
.	.	.	.	.	.	.
.	.	8ree	.	.	.	.
.	.	.	.	.	.	.
.	.	.	.	.	.	.
4EEE	4re	12Ree/	4r	.	4r	.
.	.	.	.	.	.	.
.	.	12ree	.	.	.	.
.	.	.	.	.	.	.
.	.	12ree	.	.	.	.
.	.	.	.	.	.	.
6GGG#	4re	12Ree/	4r	.	4r	.
.	.	.	.	.	.	.
.	.	12ree	.	.	.	.
.	.	.	.	.	.	.
12r	.	12ree	.	.	.	.
.	.	.	.	.	.	.
=85	=85	=85	=85	=85	=85	=85
*	*head:regular	*head:x	*	*	*	*
4CC	12Rf\	12Ree/	4r	1ryy	4r	A a
.	.	.	.	.	.	.
.	12re	12ree	.	.	.	.
.	.	.	.	.	.	.
.	12re	12ree	.	.	.	.
.	.	.	.	.	.	.
4EE	4re	12Ree/	4r	.	4r	.
.	.	.	.	.	.	.
.	.	12ree	.	.	.	.
.	.	.	.	.	.	.
.	.	12ree	.	.	.	.
.	.	.	.	.	.	.
6AA	4re	12Ree/	4r	.	4r	.
.	.	.	.	.	.	.
.	.	12ree	.	.	.	.
.	.	.	.	.	.	.
12r	.	12ree	.	.	.	.
.	.	.	.	.	.	.
4EE	4re	12Ree/	4r	.	4r	.
.	.	.	.	.	.	.
.	.	12ree	.	.	.	.
.	.	.	.	.	.	.
.	.	12ree	.	.	.	.
.	.	.	.	.	.	.
=86	=86	=86	=86	=86	=86	=86
*	*head:regular	*head:x	*	*	*	*
4AAA	4re	12Ree/	4r	1ryy	4r	A a
.	.	.	.	.	.	.
.	.	12ree	.	.	.	.
.	.	.	.	.	.	.
.	.	12ree	.	.	.	.
.	.	.	.	.	.	.
4EE	4re	12Ree/	4r	.	4r	.
.	.	.	.	.	.	.
.	.	12ree	.	.	.	.
.	.	.	.	.	.	.
.	.	12ree	.	.	.	.
.	.	.	.	.	.	.
4AAA	4re	12Ree/	4r	.	4r	.
.	.	.	.	.	.	.
.	.	12ree	.	.	.	.
.	.	.	.	.	.	.
.	.	12ree	.	.	.	.
.	.	.	.	.	.	.
8.EE	4re	12Ree/	4C E A	.	4e a ee	.
.	.	.	.	.	.	.
.	.	12ree	.	.	.	.
.	.	.	.	.	.	.
.	.	12ree	.	.	.	.
16r	.	.	.	.	.	.
=87	=87	=87	=87	=87	=87	=87
*	*head:regular	*head:x	*	*	*	*
8GGG	4re	12Ree/	4r	1ryy	4r	G a
.	.	.	.	.	.	.
.	.	12ree	.	.	.	.
8r	.	.	.	.	.	.
.	.	12ree	.	.	.	.
.	.	.	.	.	.	.
8.AAA#	4re	16Ree/	4r	.	4r	.
.	.	16ree	.	.	.	.
.	.	.	.	.	.	.
.	.	8ree	.	.	.	.
.	.	.	.	.	.	.
16r	.	.	.	.	.	.
4GGG	4re	12Ree/	12G A#	.	12d g	.
.	.	.	.	.	.	.
.	.	12ree	12r	.	12r	.
.	.	.	.	.	.	.
.	.	12ree	12r	.	12r	.
.	.	.	.	.	.	.
4DD	4re	12Ree/	4r	.	4r	.
.	.	.	.	.	.	.
.	.	12ree	.	.	.	.
.	.	.	.	.	.	.
.	.	12ree	.	.	.	.
.	.	.	.	.	.	.
=88	=88	=88	=88	=88	=88	=88
*	*head:regular	*head:x	*	*	*	*
4GG	4re	12Ree/	4r	1ryy	4r	C 
.	.	.	.	.	.	.
.	.	12ree	.	.	.	.
.	.	.	.	.	.	.
.	.	12ree	.	.	.	.
.	.	.	.	.	.	.
4CC#	4re	12Ree/	4r	.	12c e g cc	.
.	.	.	.	.	.	.
.	.	12ree	.	.	12r	.
.	.	.	.	.	.	.
.	.	12ree	.	.	12r	.
.	.	.	.	.	.	.
8CC	4re	16Ree/	4G	.	4c e g	.
.	.	16ree	.	.	.	.
.	.	.	.	.	.	.
8r	.	8ree	.	.	.	.
.	.	.	.	.	.	.
.	.	.	.	.	.	.
8GG	16Rf\	16Ree/	4r	.	4r	.
.	16re	16ree	.	.	.	.
.	.	.	.	.	.	.
8r	8re	8ree	.	.	.	.
.	.	.	.	.	.	.
.	.	.	.	.	.	.
=89	=89	=89	=89	=89	=89	=89
*	*head:regular	*head:x	*	*	*	*
4FFF	4re	4ree	4r	1ryy	4r	F 
.	.	.	.	.	.	.
.	.	.	.	.	.	.
.	.	.	.	.	.	.
.	.	.	.	.	.	.
.	.	.	.	.	.	.
4AAA	4re	16Ree/	4r	.	4r	.
.	.	16ree	.	.	.	.
.	.	.	.	.	.	.
.	.	8ree	.	.	.	.
.	.	.	.	.	.	.
.	.	.	.	.	.	.
4FFF	4re	16Ree/	4F A	.	4c f	.
.	.	16ree	.	.	.	.
.	.	.	.	.	.	.
.	.	8ree	.	.	.	.
.	.	.	.	.	.	.
.	.	.	.	.	.	.
6AAA	4re	16Ree/	4r	.	4r	.
.	.	16ree	.	.	.	.
.	.	.	.	.	.	.
.	.	8ree	.	.	.	.
12r	.	.	.	.	.	.
.	.	.	.	.	.	.
=90	=90	=90	=90	=90	=90	=90
*	*head:regular	*head:x	*	*	*	*
4AAA#	4re	16Ree/	4r	1ryy	4r	B 
.	.	16ree	.	.	.	.
.	.	.	.	.	.	.
.	.	8ree	.	.	.	.
.	.	.	.	.	.	.
.	.	.	.	.	.	.
4AAA#	4re	16Ree/	4r	.	4r	.
.	.	16ree	.	.	.	.
.	.	.	.	.	.	.
.	.	8ree	.	.	.	.
.	.	.	.	.	.	.
.	.	.	.	.	.	.
4AAA#	4re	16Ree/	6F A#	.	6d a# ff aa#	.
.	.	16ree	.	.	.	.
.	.	.	.	.	.	.
.	.	8ree	.	.	.	.
.	.	.	12r	.	12r	.
.	.	.	.	.	.	.
8DD	4re	16Ree/	4r	.	4r	.
.	.	16ree	.	.	.	.
.	.	.	.	.	.	.
8r	.	8ree	.	.	.	.
.	.	.	.	.	.	.
.	.	.	.	.	.	.
=91	=91	=91	=91	=91	=91	=91
*	*head:regular	*head:x	*	*	*	*
8.EE	4re	16Ree/	4r	1ryy	4r	E a
.	.	16ree	.	.	.	.
.	.	.	.	.	.	.
.	.	8ree	.	.	.	.
.	.	.	.	.	.	.
16r	.	.	.	.	.	.
4BBB	4re	16Ree/	4r	.	4r	.
.	.	16ree	.	.	.	.
.	.	.	.	.	.	.
.	.	8ree	.	.	.	.
.	.	.	.	.	.	.
.	.	.	.	.	.	.
4EE	4re	16Ree/	4G B	.	4e b	.
.	.	16ree	.	.	.	.
.	.	.	.	.	.	.
.	.	8ree	.	.	.	.
.	.	.	.	.	.	.
.	.	.	.	.	.	.
4GG	4re	16Ree/	4r	.	4r	.
.	.	16ree	.	.	.	.
.	.	.	.	.	.	.
.	.	8ree	.	.	.	.
.	.	.	.	.	.	.
.	.	.	.	.	.	.
=92	=92	=92	=92	=92	=92	=92
*	*head:regular	*head:x	*	*	*	*
4DD#	4re	16Ree/	4r	1ryy	4r	E a
.	.	16ree	.	.	.	.
.	.	.	.	.	.	.
.	.	8ree	.	.	.	.
.	.	.	.	.	.	.
.	.	.	.	.	.	.
4AAA	4re	16Ree/	4r	.	4r	.
.	.	16ree	.	.	.	.
.	.	.	.	.	.	.
.	.	8ree	.	.	.	.
.	.	.	.	.	.	.
.	.	.	.	.	.	.
4GGG#	4re	16Ree/	4r	.	4r	A 
.	.	16ree	.	.	.	.
.	.	.	.	.	.	.
.	.	8ree	.	.	.	.
.	.	.	.	.	.	.
.	.	.	.	.	.	.
6CC	4re	16Ree/	4r	.	4r	.
.	.	16ree	.	.	.	.
.	.	.	.	.	.	.
.	.	8ree	.	.	.	.
12r	.	.	.	.	.	.
.	.	.	.	.	.	.
=93	=93	=93	=93	=93	=93	=93
*	*head:regular	*head:x	*	*	*	*
4DD	16Rf\	16Ree/	4r	1ryy	4r	D a
.	16re	16ree	.	.	.	.
.	.	.	.	.	.	.
.	8re	8ree	.	.	.	.
.	.	.	.	.	.	.
.	.	.	.	.	.	.
4DD	4re	16Ree/	4r	.	4r	.
.	.	16ree	.	.	.	.
.	.	.	.	.	.	.
.	.	8ree	.	.	.	.
.	.	.	.	.	.	.
.	.	.	.	.	.	.
4DD	4re	16Ree/	4D F A	.	4d	.
.	.	16ree	.	.	.	.
.	.	.	.	.	.	.
.	.	8ree	.	.	.	.
.	.	.	.	.	.	.
.	.	.	.	.	.	.
4FF	4re	16Ree/	4r	.	4r	.
.	.	16ree	.	.	.	.
.	.	.	.	.	.	.
.	.	8ree	.	.	.	.
.	.	.	.	.	.	.
.	.	.	.	.	.	.
=94	=94	=94	=94	=94	=94	=94
*	*head:regular	*head:x	*	*	*	*
4GGG	4re	16Ree/	4r	1ryy	4r	G 
.	.	16ree	.	.	.	.
.	.	.	.	.	.	.
.	.	8ree	.	.	.	.
.	.	.	.	.	.	.
.	.	.	.	.	.	.
4DD	4re	16Ree/	4r	.	4r	.
.	.	16ree	.	.	.	.
.	.	.	.	.	.	.
.	.	8ree	.	.	.	.
.	.	.	.	.	.	.
.	.	.	.	.	.	.
4GG	4re	16Ree/	6D G B	.	6d	.
.	.	16ree	.	.	.	.
.	.	.	.	.	.	.
.	.	8ree	.	.	.	.
.	.	.	12r	.	12r	.
.	.	.	.	.	.	.
4BB	4re	16Ree/	4r	.	4r	.
.	.	16ree	.	.	.	.
.	.	.	.	.	.	.
.	.	8ree	.	.	.	.
.	.	.	.	.	.	.
.	.	.	.	.	.	.
=95	=95	=95	=95	=95	=95	=95
*	*head:regular	*head:x	*	*	*	*
4CC	4re	16Ree/	4r	1ryy	4r	C 
.	.	16ree	.	.	.	.
.	.	.	.	.	.	.
.	.	8ree	.	.	.	.
.	.	.	.	.	.	.
.	.	.	.	.	.	.
4CC	4re	16Ree/	4r	.	4r	.
.	.	16ree	.	.	.	.
.	.	.	.	.	.	.
.	.	8ree	.	.	.	.
.	.	.	.	.	.	.
.	.	.	.	.	.	.
4CC	4re	4ree	4C E G	.	4c	.
.	.	.	.	.	.	.
.	.	.	.	.	.	.
.	.	.	.	.	.	.
.	.	.	.	.	.	.
.	.	.	.	.	.	.
4GGG#	4re	16Ree/	4r	.	4r	.
.	.	16ree	.	.	.	.
.	.	.	.	.	.	.
.	.	8ree	.	.	.	.
.	.	.	.	.	.	.
.	.	.	.	.	.	.
=96	=96	=96	=96	=96	=96	=96
*	*head:regular	*head:x	*	*	*	*
4GGG	4re	16Ree/	4r	1ryy	4r	C 
.	.	16ree	.	.	.	.
.	.	.	.	.	.	.
.	.	8ree	.	.	.	.
.	.	.	.	.	.	.
.	.	.	.	.	.	.
4BBB	4re	16Ree/	4r	.	4r	.
.	.	16ree	.	.	.	.
.	.	.	.	.	.	.
.	.	8ree	.	.	.	.
.	.	.	.	.	.	.
.	.	.	.	.	.	.
8CC	4re	4ree	4C E G	.	4c	.
.	.	.	.	.	.	.
.	.	.	.	.	.	.
8r	.	.	.	.	.	.
.	.	.	.	.	.	.
.	.	.	.	.	.	.
8CC	4re	16Ree/	4r	.	4r	.
.	.	16ree	.	.	.	.
.	.	.	.	.	.	.
8r	.	8ree	.	.	.	.
.	.	.	.	.	.	.
.	.	.	.	.	.	.
=97	=97	=97	=97	=97	=97	=97
*	*head:regular	*head:x	*	*	*	*
4CC	4re	4ree	4r	1ryy	4r	C 
.	.	.	.	.	.	.
.	.	.	.	.	.	.
.	.	.	.	.	.	.
.	.	.	.	.	.	.
.	.	.	.	.	.	.
4GGG	4re	16Ree/	4E G	.	4c g	.
.	.	16ree	.	.	.	.
.	.	.	.	.	.	.
.	.	8ree	.	.	.	.
.	.	.	.	.	.	.
.	.	.	.	.	.	.
4CC	4re	16Ree/	4r	.	4r	.
.	.	16ree	.	.	.	.
.	.	.	.	.	.	.
.	.	8ree	.	.	.	.
.	.	.	.	.	.	.
.	.	.	.	.	.	.
6EE	4re	16Ree/	4r	.	4r	.
.	.	16ree	.	.	.	.
.	.	.	.	.	.	.
.	.	8ree	.	.	.	.
12r	.	.	.	.	.	.
.	.	.	.	.	.	.
=98	=98	=98	=98	=98	=98	=98
*	*head:regular	*head:x	*	*	*	*
4CC	4re	16Ree/	4r	1ryy	4r	C 
.	.	16ree	.	.	.	.
.	.	.	.	.	.	.
.	.	8ree	.	.	.	.
.	.	.	.	.	.	.
.	.	.	.	.	.	.
4BBB	4re	16Ree/	4r	.	4r	.
.	.	16ree	.	.	.	.
.	.	.	.	.	.	.
.	.	8ree	.	.	.	.
.	.	.	.	.	.	.
.	.	.	.	.	.	.
4CC	4re	16Ree/	6E G	.	6c g	.
.	.	16ree	.	.	.	.
.	.	.	.	.	.	.
.	.	8ree	.	.	.	.
.	.	.	12r	.	12r	.
.	.	.	.	.	.	.
8.BBB	4re	16Ree/	4r	.	4r	.
.	.	16ree	.	.	.	.
.	.	.	.	.	.	.
.	.	8ree	.	.	.	.
.	.	.	.	.	.	.
16r	.	.	.	.	.	.
=99	=99	=99	=99	=99	=99	=99
*	*head:regular	*head:x	*	*	*	*
8.BBB	4re	16Ree/	4D B	1ryy	4f b ff	B >
.	.	16ree	.	.	.	.
.	.	.	.	.	.	.
.	.	8ree	.	.	.	.
.	.	.	.	.	.	.
16r	.	.	.	.	.	.
4EE	4re	16Ree/	4r	.	4r	.
.	.	16ree	.	.	.	.
.	.	.	.	.	.	.
.	.	8ree	.	.	.	.
.	.	.	.	.	.	.
.	.	.	.	.	.	.
8FF	4re	16Ree/	4r	.	4r	.
.	.	16ree	.	.	.	.
.	.	.	.	.	.	.
8r	.	8ree	.	.	.	.
.	.	.	.	.	.	.
.	.	.	.	.	.	.
4BB	4re	16Ree/	4r	.	4r	.
.	.	16ree	.	.	.	.
.	.	.	.	.	.	.
.	.	8ree	.	.	.	.
.	.	.	.	.	.	.
.	.	.	.	.	.	.
=100	=100	=100	=100	=100	=100	=100
*	*head:regular	*head:x	*	*	*	*
4EE	4re	16Ree/	4r	1ryy	4r	E 
.	.	16ree	.	.	.	.
.	.	.	.	.	.	.
.	.	8ree	.	.	.	.
.	.	.	.	.	.	.
.	.	.	.	.	.	.
4EE	4re	16Ree/	6BB E G#	.	6e b ee	.
.	.	16ree	.	.	.	.
.	.	.	.	.	.	.
.	.	8ree	.	.	.	.
.	.	.	12r	.	12r	.
.	.	.	.	.	.	.
4EE	4re	16Ree/	6G#	.	6e b ee bb	.
.	.	16ree	.	.	.	.
.	.	.	.	.	.	.
.	.	8ree	.	.	.	.
.	.	.	12r	.	12r	.
.	.	.	.	.	.	.
4GG#	4re	16Ree/	4r	.	4r	.
.	.	16ree	.	.	.	.
.	.	.	.	.	.	.
.	.	8ree	.	.	.	.
.	.	.	.	.	.	.
.	.	.	.	.	.	.
=101	=101	=101	=101	=101	=101	=101
*	*head:regular	*head:x	*	*	*	*
6AAA	4re	12Ree/	4r	1ryy	4r	A a
.	.	.	.	.	.	.
.	.	12ree	.	.	.	.
.	.	.	.	.	.	.
12r	.	12ree	.	.	.	.
.	.	.	.	.	.	.
4EEE	4re	12Ree/	4r	.	4r	.
.	.	.	.	.	.	.
.	.	12ree	.	.	.	.
.	.	.	.	.	.	.
.	.	12ree	.	.	.	.
.	.	.	.	.	.	.
4AAA	4re	12Ree/	4C E A	.	4e a ee	.
.	.	.	.	.	.	.
.	.	12ree	.	.	.	.
.	.	.	.	.	.	.
.	.	12ree	.	.	.	.
.	.	.	.	.	.	.
4EEE	4re	12Ree/	4r	.	4r	.
.	.	.	.	.	.	.
.	.	12ree	.	.	.	.
.	.	.	.	.	.	.
.	.	12ree	.	.	.	.
.	.	.	.	.	.	.
=102	=102	=102	=102	=102	=102	=102
*	*head:regular	*head:x	*	*	*	*
4AAA	4re	12Ree/	4r	1ryy	4r	A a
.	.	.	.	.	.	.
.	.	12ree	.	.	.	.
.	.	.	.	.	.	.
.	.	12ree	.	.	.	.
.	.	.	.	.	.	.
4EEE	4re	16Ree/	4r	.	4r	.
.	.	16ree	.	.	.	.
.	.	.	.	.	.	.
.	.	8ree	.	.	.	.
.	.	.	.	.	.	.
.	.	.	.	.	.	.
4AAA	4re	12Ree/	4r	.	6c e a ee	.
.	.	.	.	.	.	.
.	.	12ree	.	.	.	.
.	.	.	.	.	.	.
.	.	12ree	.	.	12r	.
.	.	.	.	.	.	.
4GGG	4re	12Ree/	4r	.	4r	.
.	.	.	.	.	.	.
.	.	12ree	.	.	.	.
.	.	.	.	.	.	.
.	.	12ree	.	.	.	.
.	.	.	.	.	.	.
=103	=103	=103	=103	=103	=103	=103
*	*head:regular	*head:x	*	*	*	*
4GGG	4re	12Ree/	4r	1ryy	4r	G a
.	.	.	.	.	.	.
.	.	12ree	.	.	.	.
.	.	.	.	.	.	.
.	.	12ree	.	.	.	.
.	.	.	.	.	.	.
6AAA#	4re	12Ree/	4r	.	4r	.
.	.	.	.	.	.	.
.	.	12ree	.	.	.	.
.	.	.	.	.	.	.
12r	.	12ree	.	.	.	.
.	.	.	.	.	.	.
4GG	4re	12Ree/	4A#	.	4d g dd	.
.	.	.	.	.	.	.
.	.	12ree	.	.	.	.
.	.	.	.	.	.	.
.	.	12ree	.	.	.	.
.	.	.	.	.	.	.
4DD	4re	12Ree/	4r	.	4r	.
.	.	.	.	.	.	.
.	.	12ree	.	.	.	.
.	.	.	.	.	.	.
.	.	12ree	.	.	.	.
.	.	.	.	.	.	.
=104	=104	=104	=104	=104	=104	=104
*	*head:regular	*head:x	*	*	*	*
4CC	4re	12Ree/	4r	1ryy	4r	C 
.	.	.	.	.	.	.
.	.	12ree	.	.	.	.
.	.	.	.	.	.	.
.	.	12ree	.	.	.	.
.	.	.	.	.	.	.
4GGG	4re	12Ree/	4r	.	4c e g cc	.
.	.	.	.	.	.	.
.	.	12ree	.	.	.	.
.	.	.	.	.	.	.
.	.	12ree	.	.	.	.
.	.	.	.	.	.	.
8CC	4re	4ree	4G	.	4c e cc gg ccc	.
.	.	.	.	.	.	.
.	.	.	.	.	.	.
8r	.	.	.	.	.	.
.	.	.	.	.	.	.
.	.	.	.	.	.	.
8GGG	4re	16Ree/	4r	.	4r	.
.	.	16ree	.	.	.	.
.	.	.	.	.	.	.
8r	.	8ree	.	.	.	.
.	.	.	.	.	.	.
.	.	.	.	.	.	.
=105	=105	=105	=105	=105	=105	=105
*	*head:regular	*head:x	*	*	*	*
4FFF	4re	4ree	4r	1ryy	4r	F 
.	.	.	.	.	.	.
.	.	.	.	.	.	.
.	.	.	.	.	.	.
.	.	.	.	.	.	.
.	.	.	.	.	.	.
8.CC	4re	16Ree/	4r	.	4r	.
.	.	16ree	.	.	.	.
.	.	.	.	.	.	.
.	.	8ree	.	.	.	.
.	.	.	.	.	.	.
16r	.	.	.	.	.	.
6FFF	12Rf\	4ree	4r	.	4r	.
.	.	.	.	.	.	.
.	12re	.	.	.	.	.
.	.	.	.	.	.	.
12r	12re	.	.	.	.	.
.	.	.	.	.	.	.
4AAA	4re	16Ree/	4r	.	4r	.
.	.	16ree	.	.	.	.
.	.	.	.	.	.	.
.	.	8ree	.	.	.	.
.	.	.	.	.	.	.
.	.	.	.	.	.	.
=106	=106	=106	=106	=106	=106	=106
*	*head:regular	*head:x	*	*	*	*
4AAA#	4re	4ree	4r	1ryy	4r	B 
.	.	.	.	.	.	.
.	.	.	.	.	.	.
.	.	.	.	.	.	.
.	.	.	.	.	.	.
.	.	.	.	.	.	.
4DD	12Rf\	16Ree/	12F A#	.	12d f	.
.	.	16ree	.	.	.	.
.	12re	.	12r	.	12r	.
.	.	8ree	.	.	.	.
.	12re	.	12r	.	12r	.
.	.	.	.	.	.	.
4AAA#	4re	4ree	4F A#	.	4d f	.
.	.	.	.	.	.	.
.	.	.	.	.	.	.
.	.	.	.	.	.	.
.	.	.	.	.	.	.
.	.	.	.	.	.	.
8.FFF	4re	16Ree/	4r	.	4r	.
.	.	16ree	.	.	.	.
.	.	.	.	.	.	.
.	.	8ree	.	.	.	.
.	.	.	.	.	.	.
16r	.	.	.	.	.	.
=107	=107	=107	=107	=107	=107	=107
*	*head:regular	*head:x	*	*	*	*
8EEE	4re	4ree	4r	1ryy	4r	E a
.	.	.	.	.	.	.
.	.	.	.	.	.	.
8r	.	.	.	.	.	.
.	.	.	.	.	.	.
.	.	.	.	.	.	.
4BBB	4re	16Ree/	4r	.	4r	.
.	.	16ree	.	.	.	.
.	.	.	.	.	.	.
.	.	8ree	.	.	.	.
.	.	.	.	.	.	.
.	.	.	.	.	.	.
4GGG	4re	4ree	4r	.	4r	.
.	.	.	.	.	.	.
.	.	.	.	.	.	.
.	.	.	.	.	.	.
.	.	.	.	.	.	.
.	.	.	.	.	.	.
4EEE	12Rf\	16Ree/	4r	.	4r	.
.	.	16ree	.	.	.	.
.	12re	.	.	.	.	.
.	.	8ree	.	.	.	.
.	12re	.	.	.	.	.
.	.	.	.	.	.	.
=108	=108	=108	=108	=108	=108	=108
*	*head:regular	*head:x	*	*	*	*
4CC#	4re	4ree	4r	1ryy	4r	A 
.	.	.	.	.	.	.
.	.	.	.	.	.	.
.	.	.	.	.	.	.
.	.	.	.	.	.	.
.	.	.	.	.	.	.
4GG#	4re	16Ree/	12E A	.	12c# a ee aa	.
.	.	16ree	.	.	.	.
.	.	.	12r	.	12r	.
.	.	8ree	.	.	.	.
.	.	.	12r	.	12r	.
.	.	.	.	.	.	.
4AA	4re	4ree	4r	.	4r	.
.	.	.	.	.	.	.
.	.	.	.	.	.	.
.	.	.	.	.	.	.
.	.	.	.	.	.	.
.	.	.	.	.	.	.
4C#	4re	16Ree/	4r	.	4r	.
.	.	16ree	.	.	.	.
.	.	.	.	.	.	.
.	.	8ree	.	.	.	.
.	.	.	.	.	.	.
.	.	.	.	.	.	.
=109	=109	=109	=109	=109	=109	=109
*	*head:regular	*head:x	*	*	*	*
4D	4re	4ree	4r	1ryy	4r	D 
.	.	.	.	.	.	.
.	.	.	.	.	.	.
.	.	.	.	.	.	.
.	.	.	.	.	.	.
.	.	.	.	.	.	.
4A	4re	16Ree/	4r	.	4r	.
.	.	16ree	.	.	.	.
.	.	.	.	.	.	.
.	.	8ree	.	.	.	.
.	.	.	.	.	.	.
.	.	.	.	.	.	.
4DD	12Rf\	4ree	4r	.	4r	.
.	.	.	.	.	.	.
.	12re	.	.	.	.	.
.	.	.	.	.	.	.
.	12re	.	.	.	.	.
.	.	.	.	.	.	.
6AAA	4re	16Ree/	4r	.	4r	.
.	.	16ree	.	.	.	.
.	.	.	.	.	.	.
.	.	8ree	.	.	.	.
12r	.	.	.	.	.	.
.	.	.	.	.	.	.
=110	=110	=110	=110	=110	=110	=110
*	*head:regular	*head:x	*	*	*	*
4DD	4re	4ree	4r	1ryy	4r	D 
.	.	.	.	.	.	.
.	.	.	.	.	.	.
.	.	.	.	.	.	.
.	.	.	.	.	.	.
.	.	.	.	.	.	.
4CC#	4re	16Ree/	4r	.	4r	.
.	.	16ree	.	.	.	.
.	.	.	.	.	.	.
.	.	8ree	.	.	.	.
.	.	.	.	.	.	.
.	.	.	.	.	.	.
4DD	4re	4ree	4r	.	4r	.
.	.	.	.	.	.	.
.	.	.	.	.	.	.
.	.	.	.	.	.	.
.	.	.	.	.	.	.
.	.	.	.	.	.	.
8AAA	4re	16Ree/	4F# A	.	4d a	.
.	.	16ree	.	.	.	.
.	.	.	.	.	.	.
8r	.	8ree	.	.	.	.
.	.	.	.	.	.	.
.	.	.	.	.	.	.
=111	=111	=111	=111	=111	=111	=111
*	*head:regular	*head:x	*	*	*	*
8.DD	4re	4ree	4r	1ryy	4r	D a
.	.	.	.	.	.	.
.	.	.	.	.	.	.
.	.	.	.	.	.	.
.	.	.	.	.	.	.
16r	.	.	.	.	.	.
4CC#	4re	16Ree/	4r	.	4r	.
.	.	16ree	.	.	.	.
.	.	.	.	.	.	.
.	.	8ree	.	.	.	.
.	.	.	.	.	.	.
.	.	.	.	.	.	.
4DD	4re	4ree	12F A	.	12d a	.
.	.	.	.	.	.	.
.	.	.	12r	.	12r	.
.	.	.	.	.	.	.
.	.	.	12r	.	12r	.
.	.	.	.	.	.	.
4AAA	4re	16Ree/	4r	.	4r	.
.	.	16ree	.	.	.	.
.	.	.	.	.	.	.
.	.	8ree	.	.	.	.
.	.	.	.	.	.	.
.	.	.	.	.	.	.
=112	=112	=112	=112	=112	=112	=112
*	*head:regular	*head:x	*	*	*	*
4GGG	4re	4ree	4r	1ryy	4r	G 
.	.	.	.	.	.	.
.	.	.	.	.	.	.
.	.	.	.	.	.	.
.	.	.	.	.	.	.
.	.	.	.	.	.	.
4DD	4re	16Ree/	12G B	.	12d g	.
.	.	16ree	.	.	.	.
.	.	.	12r	.	12r	.
.	.	8ree	.	.	.	.
.	.	.	12r	.	12r	.
.	.	.	.	.	.	.
8GG	4re	4ree	4B	.	4d g dd	.
.	.	.	.	.	.	.
.	.	.	.	.	.	.
8r	.	.	.	.	.	.
.	.	.	.	.	.	.
.	.	.	.	.	.	.
8D	16Rf\	16Ree/	4r	.	4r	.
.	16re	16ree	.	.	.	.
.	.	.	.	.	.	.
8r	8re	8ree	.	.	.	.
.	.	.	.	.	.	.
.	.	.	.	.	.	.
=113	=113	=113	=113	=113	=113	=113
*	*head:regular	*head:x	*	*	*	*
4CC	4re	4ree	4r	1ryy	4r	C 
.	.	.	.	.	.	.
.	.	.	.	.	.	.
.	.	.	.	.	.	.
.	.	.	.	.	.	.
.	.	.	.	.	.	.
4GGG	4re	16Ree/	4r	.	4r	.
.	.	16ree	.	.	.	.
.	.	.	.	.	.	.
.	.	8ree	.	.	.	.
.	.	.	.	.	.	.
.	.	.	.	.	.	.
6CC	4re	16Ree/	4r	.	4r	.
.	.	16ree	.	.	.	.
.	.	.	.	.	.	.
.	.	8ree	.	.	.	.
12r	.	.	.	.	.	.
.	.	.	.	.	.	.
4GGG	4re	16Ree/	4r	.	4r	.
.	.	16ree	.	.	.	.
.	.	.	.	.	.	.
.	.	8ree	.	.	.	.
.	.	.	.	.	.	.
.	.	.	.	.	.	.
=114	=114	=114	=114	=114	=114	=114
*	*head:regular	*head:x	*	*	*	*
4EEE	16Rf\	16Ree/	4E G	1ryy	4c g	C 
.	16re	16ree	.	.	.	.
.	.	.	.	.	.	.
.	8re	8ree	.	.	.	.
.	.	.	.	.	.	.
.	.	.	.	.	.	.
4GGG	4re	16Ree/	4r	.	4r	.
.	.	16ree	.	.	.	.
.	.	.	.	.	.	.
.	.	8ree	.	.	.	.
.	.	.	.	.	.	.
.	.	.	.	.	.	.
4CC	4re	16Ree/	4r	.	4r	.
.	.	16ree	.	.	.	.
.	.	.	.	.	.	.
.	.	8ree	.	.	.	.
.	.	.	.	.	.	.
.	.	.	.	.	.	.
8.GGG	4re	16Ree/	4r	.	4r	.
.	.	16ree	.	.	.	.
.	.	.	.	.	.	.
.	.	8ree	.	.	.	.
.	.	.	.	.	.	.
16r	.	.	.	.	.	.
=115	=115	=115	=115	=115	=115	=115
*	*head:regular	*head:x	*	*	*	*
8BBB	16Rcc\	4ree	8.D B	1ryy	8.f b ff	B >
.	16re	.	.	.	.	.
.	.	.	.	.	.	.
8r	8re	.	.	.	.	.
.	.	.	.	.	.	.
.	.	.	16r	.	16r	.
8.DD	4re	16Ree/	8.D B	.	8.f b ff	.
.	.	16ree	.	.	.	.
.	.	.	.	.	.	.
.	.	8ree	.	.	.	.
.	.	.	.	.	.	.
16r	.	.	16r	.	16r	.
4DD	4re	16Ree/	8.D B	.	8.f b ff	.
.	.	16ree	.	.	.	.
.	.	.	.	.	.	.
.	.	8ree	.	.	.	.
.	.	.	.	.	.	.
.	.	.	16r	.	16r	.
4FFF	4re	16Ree/	8.D B	.	8.f b ff	.
.	.	16ree	.	.	.	.
.	.	.	.	.	.	.
.	.	8ree	.	.	.	.
.	.	.	.	.	.	.
.	.	.	16r	.	16r	.
=116	=116	=116	=116	=116	=116	=116
*	*head:regular	*head:x	*	*	*	*
4EEE	4re	16Ree/	6BB E G#	1ryy	6e b ee	E 
.	.	16ree	.	.	.	.
.	.	.	.	.	.	.
.	.	8ree	.	.	.	.
.	.	.	12r	.	12r	.
.	.	.	.	.	.	.
4BBB	4re	16Ree/	4r	.	4r	.
.	.	16ree	.	.	.	.
.	.	.	.	.	.	.
.	.	8ree	.	.	.	.
.	.	.	.	.	.	.
.	.	.	.	.	.	.
4EEE	4re	16Ree/	4r	.	4r	.
.	.	16ree	.	.	.	.
.	.	.	.	.	.	.
.	.	8ree	.	.	.	.
.	.	.	.	.	.	.
.	.	.	.	.	.	.
4GGG#	4re	16Ree/	4r	.	4r	.
.	.	16ree	.	.	.	.
.	.	.	.	.	.	.
.	.	8ree	.	.	.	.
.	.	.	.	.	.	.
.	.	.	.	.	.	.
=117	=117	=117	=117	=117	=117	=117
*	*head:regular	*head:x	*	*	*	*
6AAA	16Rf\	16Ree/	4r	1ryy	4r	A a
.	16re	16ree	.	.	.	.
.	.	.	.	.	.	.
.	8re	8ree	.	.	.	.
12r	.	.	.	.	.	.
.	.	.	.	.	.	.
4GG#	4re	16Ree/	4r	.	4r	.
.	.	16ree	.	.	.	.
.	.	.	.	.	.	.
.	.	8ree	.	.	.	.
.	.	.	.	.	.	.
.	.	.	.	.	.	.
4AA	4re	16Ree/	4r	.	4r	.
.	.	16ree	.	.	.	.
.	.	.	.	.	.	.
.	.	8ree	.	.	.	.
.	.	.	.	.	.	.
.	.	.	.	.	.	.
4C	4re	16Ree/	4r	.	4r	.
.	.	16ree	.	.	.	.
.	.	.	.	.	.	.
.	.	8ree	.	.	.	.
.	.	.	.	.	.	.
.	.	.	.	.	.	.
=118	=118	=118	=118	=118	=118	=118
*	*head:regular	*head:x	*	*	*	*
4AA	4re	16Ree/	4r	1ryy	4r	A a
.	.	16ree	.	.	.	.
.	.	.	.	.	.	.
.	.	8ree	.	.	.	.
.	.	.	.	.	.	.
.	.	.	.	.	.	.
4E	4re	16Ree/	4r	.	4r	.
.	.	16ree	.	.	.	.
.	.	.	.	.	.	.
.	.	8ree	.	.	.	.
.	.	.	.	.	.	.
.	.	.	.	.	.	.
4AA	4re	16Ree/	4r	.	4r	.
.	.	16ree	.	.	.	.
.	.	.	.	.	.	.
.	.	8ree	.	.	.	.
.	.	.	.	.	.	.
.	.	.	.	.	.	.
4EE	4re	16Ree/	4C E A	.	4e a ee	.
.	.	16ree	.	.	.	.
.	.	.	.	.	.	.
.	.	8ree	.	.	.	.
.	.	.	.	.	.	.
.	.	.	.	.	.	.
=119	=119	=119	=119	=119	=119	=119
*	*head:regular	*head:x	*	*	*	*
4GGG	4re	16Ree/	4r	1ryy	4r	G a
.	.	16ree	.	.	.	.
.	.	.	.	.	.	.
.	.	8ree	.	.	.	.
.	.	.	.	.	.	.
.	.	.	.	.	.	.
6DD	4re	16Ree/	4r	.	4r	.
.	.	16ree	.	.	.	.
.	.	.	.	.	.	.
.	.	8ree	.	.	.	.
12r	.	.	.	.	.	.
.	.	.	.	.	.	.
4GGG	4re	4ree	12G A#	.	12d g	.
.	.	.	.	.	.	.
.	.	.	12r	.	12r	.
.	.	.	.	.	.	.
.	.	.	12r	.	12r	.
.	.	.	.	.	.	.
4DD	4re	16Ree/	4r	.	4r	.
.	.	16ree	.	.	.	.
.	.	.	.	.	.	.
.	.	8ree	.	.	.	.
.	.	.	.	.	.	.
.	.	.	.	.	.	.
=120	=120	=120	=120	=120	=120	=120
*	*head:regular	*head:x	*	*	*	*
4CC	4re	16Ree/	4r	1ryy	4r	C 
.	.	16ree	.	.	.	.
.	.	.	.	.	.	.
.	.	8ree	.	.	.	.
.	.	.	.	.	.	.
.	.	.	.	.	.	.
4CC	4re	16Ree/	12E G	.	12c g	.
.	.	16ree	.	.	.	.
.	.	.	12r	.	12r	.
.	.	8ree	.	.	.	.
.	.	.	12r	.	12r	.
.	.	.	.	.	.	.
8CC	4re	16Ree/	4E G	.	4c g	.
.	.	16ree	.	.	.	.
.	.	.	.	.	.	.
8r	.	8ree	.	.	.	.
.	.	.	.	.	.	.
.	.	.	.	.	.	.
8GGG	4re	16Ree/	4r	.	4r	.
.	.	16ree	.	.	.	.
.	.	.	.	.	.	.
8r	.	8ree	.	.	.	.
.	.	.	.	.	.	.
.	.	.	.	.	.	.
=121	=121	=121	=121	=121	=121	=121
*	*head:regular	*head:x	*	*	*	*
4FFF	4re	4ree	4r	1ryy	4r	F 
.	.	.	.	.	.	.
.	.	.	.	.	.	.
.	.	.	.	.	.	.
.	.	.	.	.	.	.
.	.	.	.	.	.	.
4AAA	4re	12Ree/	4r	.	4r	.
.	.	.	.	.	.	.
.	.	12ree	.	.	.	.
.	.	.	.	.	.	.
.	.	12ree	.	.	.	.
.	.	.	.	.	.	.
6FF	4re	12Ree/	4r	.	4r	.
.	.	.	.	.	.	.
.	.	12ree	.	.	.	.
.	.	.	.	.	.	.
12r	.	12ree	.	.	.	.
.	.	.	.	.	.	.
4FFF#	4re	12Ree/	4r	.	4r	.
.	.	.	.	.	.	.
.	.	12ree	.	.	.	.
.	.	.	.	.	.	.
.	.	12ree	.	.	.	.
.	.	.	.	.	.	.
=122	=122	=122	=122	=122	=122	=122
*	*head:regular	*head:x	*	*	*	*
4FFF	4re	12Ree/	6AA# D F A#	1ryy	4r	B 
.	.	.	.	.	.	.
.	.	12ree	.	.	.	.
.	.	.	.	.	.	.
.	.	12ree	12r	.	.	.
.	.	.	.	.	.	.
4AAA#	4re	12Ree/	4r	.	4r	.
.	.	.	.	.	.	.
.	.	12ree	.	.	.	.
.	.	.	.	.	.	.
.	.	12ree	.	.	.	.
.	.	.	.	.	.	.
4AAA#	4re	12Ree/	4r	.	4r	.
.	.	.	.	.	.	.
.	.	12ree	.	.	.	.
.	.	.	.	.	.	.
.	.	12ree	.	.	.	.
.	.	.	.	.	.	.
8.FFF	4re	16Ree/	4r	.	4r	.
.	.	16ree	.	.	.	.
.	.	.	.	.	.	.
.	.	8ree	.	.	.	.
.	.	.	.	.	.	.
16r	.	.	.	.	.	.
=123	=123	=123	=123	=123	=123	=123
*	*head:regular	*head:x	*	*	*	*
8EEE	4re	12Ree/	4r	1ryy	4r	E a
.	.	.	.	.	.	.
.	.	12ree	.	.	.	.
8r	.	.	.	.	.	.
.	.	12ree	.	.	.	.
.	.	.	.	.	.	.
8.BBB	4re	12Ree/	4r	.	4r	.
.	.	.	.	.	.	.
.	.	12ree	.	.	.	.
.	.	.	.	.	.	.
.	.	12ree	.	.	.	.
16r	.	.	.	.	.	.
4EEE	4re	12Ree/	4r	.	4r	.
.	.	.	.	.	.	.
.	.	12ree	.	.	.	.
.	.	.	.	.	.	.
.	.	12ree	.	.	.	.
.	.	.	.	.	.	.
4GGG	4re	12Ree/	4r	.	4r	.
.	.	.	.	.	.	.
.	.	12ree	.	.	.	.
.	.	.	.	.	.	.
.	.	12ree	.	.	.	.
.	.	.	.	.	.	.
=124	=124	=124	=124	=124	=124	=124
*	*head:regular	*head:x	*	*	*	*
4FF#	12Rf\	12Ree/	6D# F# A#	1ryy	6d#	E a
.	.	.	.	.	.	.
.	12re	12ree	.	.	.	.
.	.	.	.	.	.	.
.	12re	12ree	12r	.	12r	.
.	.	.	.	.	.	.
4DD#	4re	12Ree/	4r	.	4r	.
.	.	.	.	.	.	.
.	.	12ree	.	.	.	.
.	.	.	.	.	.	.
.	.	12ree	.	.	.	.
.	.	.	.	.	.	.
4GGG#	4re	12Ree/	4r	.	4r	A 
.	.	.	.	.	.	.
.	.	12ree	.	.	.	.
.	.	.	.	.	.	.
.	.	12ree	.	.	.	.
.	.	.	.	.	.	.
4CC	4re	12Ree/	6D# G#	.	6c g# dd# gg#	.
.	.	.	.	.	.	.
.	.	12ree	.	.	.	.
.	.	.	.	.	.	.
.	.	12ree	12r	.	12r	.
.	.	.	.	.	.	.
=125	=125	=125	=125	=125	=125	=125
*	*head:regular	*head:x	*	*	*	*
4DD	4re	16Ree/	4D F A	1ryy	4d	D a
.	.	16ree	.	.	.	.
.	.	.	.	.	.	.
.	.	8ree	.	.	.	.
.	.	.	.	.	.	.
.	.	.	.	.	.	.
4AAA	4re	16Ree/	4r	.	4r	.
.	.	16ree	.	.	.	.
.	.	.	.	.	.	.
.	.	8ree	.	.	.	.
.	.	.	.	.	.	.
.	.	.	.	.	.	.
4FFF	4re	16Ree/	4r	.	4r	.
.	.	16ree	.	.	.	.
.	.	.	.	.	.	.
.	.	8ree	.	.	.	.
.	.	.	.	.	.	.
.	.	.	.	.	.	.
6GGG	4re	16Ree/	4r	.	4r	.
.	.	16ree	.	.	.	.
.	.	.	.	.	.	.
.	.	8ree	.	.	.	.
12r	.	.	.	.	.	.
.	.	.	.	.	.	.
=126	=126	=126	=126	=126	=126	=126
*	*head:regular	*head:x	*	*	*	*
4GGG	4re	16Ree/	6D G B	1ryy	6d	G 
.	.	16ree	.	.	.	.
.	.	.	.	.	.	.
.	.	8ree	.	.	.	.
.	.	.	12r	.	12r	.
.	.	.	.	.	.	.
4DD	16Rf\	16Ree/	4r	.	4r	.
.	16re	16ree	.	.	.	.
.	.	.	.	.	.	.
.	8re	8ree	.	.	.	.
.	.	.	.	.	.	.
.	.	.	.	.	.	.
4GG	4re	16Ree/	6G B	.	6d g	.
.	.	16ree	.	.	.	.
.	.	.	.	.	.	.
.	.	8ree	.	.	.	.
.	.	.	12r	.	12r	.
.	.	.	.	.	.	.
8DD	4re	16Ree/	4r	.	4r	.
.	.	16ree	.	.	.	.
.	.	.	.	.	.	.
8r	.	8ree	.	.	.	.
.	.	.	.	.	.	.
.	.	.	.	.	.	.
=127	=127	=127	=127	=127	=127	=127
*	*head:regular	*head:x	*	*	*	*
8.C	4re	16Ree/	4r	1ryy	4r	C 
.	.	16ree	.	.	.	.
.	.	.	.	.	.	.
.	.	8ree	.	.	.	.
.	.	.	.	.	.	.
16r	.	.	.	.	.	.
4GG	4re	16Ree/	4r	.	4r	.
.	.	16ree	.	.	.	.
.	.	.	.	.	.	.
.	.	8ree	.	.	.	.
.	.	.	.	.	.	.
.	.	.	.	.	.	.
4EE	4re	16Ree/	4E G	.	4c g	.
.	.	16ree	.	.	.	.
.	.	.	.	.	.	.
.	.	8ree	.	.	.	.
.	.	.	.	.	.	.
.	.	.	.	.	.	.
4CC#	4re	16Ree/	4r	.	4r	.
.	.	16ree	.	.	.	.
.	.	.	.	.	.	.
.	.	8ree	.	.	.	.
.	.	.	.	.	.	.
.	.	.	.	.	.	.
==	==	==	==	==	==	==
*-	*-	*-	*-	*-	*-	*-
!!!system-decoration: {(s1,s2)}s3,s4e